;FLAVOR:Marlin
;TIME:10568
;Filament used: 16.7911m
;Layer height: 0.28
;MINX:49.019
;MINY:50.132
;MINZ:0.28
;MAXX:170.968
;MAXY:169.87
;MAXZ:28.84
;Generated with Cura_SteamEngine 4.3.0
M140 S70
M105
M190 S70
M104 S210
M105
M109 S210
M82 ;absolute extrusion mode
M201 X500.00 Y500.00 Z100.00 E5000.00 ;Setup machine max acceleration
M203 X500.00 Y500.00 Z10.00 E50.00 ;Setup machine max feedrate
M204 P500.00 R1000.00 T500.00 ;Setup Print/Retract/Travel acceleration
M205 X8.00 Y8.00 Z0.40 E5.00 ;Setup Jerk
M220 S100 ;Reset Feedrate
M221 S100 ;Reset Flowrate

G28 ;Home

G92 E0 ;Reset Extruder
G1 Z2.0 F3000 ;Move Z Axis up
G1 X10.1 Y20 Z0.28 F5000.0 ;Move to start position
G1 X10.1 Y200.0 Z0.28 F1500.0 E15 ;Draw the first line
G1 X10.4 Y200.0 Z0.28 F5000.0 ;Move to side a little
G1 X10.4 Y20 Z0.28 F1500.0 E30 ;Draw the second line
G92 E0 ;Reset Extruder
G1 Z2.0 F3000 ;Move Z Axis up

G92 E0
G92 E0
G1 F2700 E-5
;LAYER_COUNT:103
;LAYER:0
M107
G0 F6000 X66.763 Y65.168 Z0.28
;TYPE:SKIRT
G1 F2700 E0
G1 F1200 X67.199 Y64.727 E0.04331
G1 X67.424 Y64.505 E0.06539
G1 X68.057 Y63.899 E0.1266
G1 X68.189 Y63.775 E0.13925
G1 X69.268 Y62.774 E0.24205
G1 X69.386 Y62.666 E0.25322
G1 X69.825 Y62.27 E0.29452
G1 X70.079 Y62.048 E0.31808
G1 X70.767 Y61.463 E0.38116
G1 X70.912 Y61.342 E0.39435
G1 X72.032 Y60.421 E0.49563
G1 X72.15 Y60.325 E0.50625
G1 X72.646 Y59.928 E0.55063
G1 X72.925 Y59.711 E0.57531
G1 X73.592 Y59.21 E0.63358
G1 X73.733 Y59.106 E0.64582
G1 X74.981 Y58.198 E0.75362
G1 X75.091 Y58.119 E0.76307
G1 X75.563 Y57.784 E0.8035
G1 X75.856 Y57.583 E0.82832
G1 X76.544 Y57.126 E0.88601
G1 X76.699 Y57.024 E0.89897
G1 X77.959 Y56.216 E1.00352
G1 X78.101 Y56.127 E1.01522
G1 X78.647 Y55.788 E1.06011
G1 X78.943 Y55.61 E1.08424
G1 X79.655 Y55.197 E1.14173
G1 X79.799 Y55.115 E1.1533
G1 X81.097 Y54.387 E1.25725
G1 X81.24 Y54.308 E1.26866
G1 X81.806 Y54.001 E1.31363
G1 X82.108 Y53.843 E1.33744
G1 X82.869 Y53.459 E1.39697
G1 X83.035 Y53.377 E1.40991
G1 X84.333 Y52.748 E1.51065
G1 X84.458 Y52.689 E1.52031
G1 X85.071 Y52.401 E1.56761
G1 X85.391 Y52.256 E1.59215
G1 X86.116 Y51.942 E1.64733
G1 X86.283 Y51.871 E1.66001
G1 X87.762 Y51.258 E1.77183
G1 X87.935 Y51.188 E1.78487
G1 X88.514 Y50.959 E1.82836
G1 X89.42 Y50.644 E1.89535
G1 X90.349 Y50.405 E1.96235
G1 X91.294 Y50.245 E2.0293
G1 X92.25 Y50.164 E2.09631
G1 X93.209 Y50.162 E2.16329
G1 X94.449 Y50.28 E2.25029
G1 X95.383 Y50.42 E2.31626
G1 X95.668 Y50.466 E2.33642
G1 X96.415 Y50.597 E2.38939
G1 X98.876 Y50.956 E2.5631
G1 X101.385 Y51.251 E2.73956
G1 X103.872 Y51.471 E2.91394
G1 X106.359 Y51.621 E3.08796
G1 X108.853 Y51.701 E3.26225
G1 X111.353 Y51.709 E3.43687
G1 X113.877 Y51.648 E3.61321
G1 X116.382 Y51.515 E3.78842
G1 X118.841 Y51.315 E3.96074
G1 X121.374 Y51.036 E4.13873
G1 X123.836 Y50.695 E4.31234
G1 X126.283 Y50.288 E4.4856
G1 X127.235 Y50.17 E4.5526
G1 X128.193 Y50.132 E4.61957
G1 X129.151 Y50.174 E4.68654
G1 X130.103 Y50.296 E4.75358
G1 X131.04 Y50.496 E4.8205
G1 X132.33 Y50.911 E4.91515
G1 X133.286 Y51.282 E4.98677
G1 X133.494 Y51.365 E5.00242
G1 X134.519 Y51.786 E5.07981
G1 X134.686 Y51.856 E5.09246
G1 X135.364 Y52.147 E5.14399
G1 X135.652 Y52.276 E5.16603
G1 X136.312 Y52.581 E5.21682
G1 X136.462 Y52.652 E5.22841
G1 X137.796 Y53.292 E5.33175
G1 X137.951 Y53.367 E5.34378
G1 X138.521 Y53.651 E5.38826
G1 X138.801 Y53.796 E5.41028
G1 X139.437 Y54.135 E5.46062
G1 X139.59 Y54.218 E5.47278
G1 X140.882 Y54.932 E5.57588
G1 X141.024 Y55.011 E5.58723
G1 X141.614 Y55.348 E5.63469
G1 X141.908 Y55.522 E5.65855
G1 X142.51 Y55.89 E5.70783
G1 X142.64 Y55.971 E5.71853
G1 X143.885 Y56.755 E5.8213
G1 X144.01 Y56.834 E5.83163
G1 X144.558 Y57.189 E5.87723
G1 X144.852 Y57.386 E5.90195
G1 X145.525 Y57.852 E5.95912
G1 X145.658 Y57.946 E5.9705
G1 X146.796 Y58.758 E6.06814
G1 X146.915 Y58.844 E6.0784
G1 X147.462 Y59.245 E6.12577
G1 X147.737 Y59.453 E6.14986
G1 X148.351 Y59.932 E6.20425
G1 X148.488 Y60.04 E6.21643
G1 X149.595 Y60.931 E6.31569
G1 X149.704 Y61.02 E6.32551
G1 X150.219 Y61.445 E6.37215
G1 X150.486 Y61.673 E6.39668
G1 X151.084 Y62.198 E6.45226
G1 X151.202 Y62.303 E6.46329
G1 X152.238 Y63.238 E6.56076
G1 X152.35 Y63.34 E6.57134
G1 X152.841 Y63.795 E6.6181
G1 X153.097 Y64.04 E6.64285
G1 X153.654 Y64.589 E6.69747
G1 X153.769 Y64.704 E6.70883
G1 X154.776 Y65.725 E6.809
G1 X154.891 Y65.843 E6.8205
G1 X155.35 Y66.322 E6.86684
G1 X155.572 Y66.56 E6.88957
G1 X156.099 Y67.142 E6.94441
G1 X156.21 Y67.267 E6.95609
G1 X157.15 Y68.336 E7.05552
G1 X157.248 Y68.449 E7.06596
G1 X157.672 Y68.944 E7.11149
G1 X157.888 Y69.204 E7.1351
G1 X158.385 Y69.82 E7.19038
G1 X158.494 Y69.956 E7.20255
G1 X159.377 Y71.085 E7.30266
G1 X159.479 Y71.219 E7.31443
G1 X159.869 Y71.733 E7.35949
G1 X160.054 Y71.983 E7.38121
G1 X160.52 Y72.633 E7.43708
G1 X160.623 Y72.779 E7.44956
G1 X161.409 Y73.912 E7.54587
G1 X161.499 Y74.044 E7.55703
G1 X161.903 Y74.644 E7.60755
G1 X162.083 Y74.92 E7.63057
G1 X162.472 Y75.535 E7.68139
G1 X162.56 Y75.675 E7.69294
G1 X163.284 Y76.857 E7.78976
G1 X163.373 Y77.006 E7.80188
G1 X163.753 Y77.648 E7.85399
G1 X163.912 Y77.925 E7.8763
G1 X164.27 Y78.57 E7.92782
G1 X164.35 Y78.717 E7.93951
G1 X165.024 Y79.974 E8.03913
G1 X165.095 Y80.108 E8.04972
G1 X165.418 Y80.73 E8.09868
G1 X165.567 Y81.028 E8.12195
G1 X165.867 Y81.649 E8.17012
G1 X165.945 Y81.812 E8.18274
G1 X166.579 Y83.179 E8.28799
G1 X166.645 Y83.325 E8.29918
G1 X166.898 Y83.891 E8.34248
G1 X167.026 Y84.189 E8.36513
G1 X167.342 Y84.953 E8.42288
G1 X167.408 Y85.116 E8.43516
G1 X167.913 Y86.392 E8.53101
G1 X167.967 Y86.53 E8.54136
G1 X168.215 Y87.181 E8.59002
G1 X168.518 Y88.091 E8.65701
G1 X168.745 Y89.022 E8.72395
G1 X168.894 Y89.97 E8.79097
G1 X168.962 Y90.896 E8.85582
G1 X168.993 Y91.835 E8.92145
G1 X168.999 Y92.214 E8.94792
G1 X168.999 Y98.497 E9.38676
G1 X169.036 Y101.085 E9.56755
G1 X169.143 Y103.611 E9.74414
G1 X169.318 Y106.079 E9.91695
G1 X169.567 Y108.588 E10.09305
G1 X169.88 Y111.04 E10.26571
G1 X170.274 Y113.547 E10.44296
G1 X170.776 Y116.243 E10.6345
G1 X170.912 Y117.193 E10.70153
G1 X170.968 Y118.15 E10.76849
G1 X170.945 Y119.109 E10.83549
G1 X170.865 Y119.901 E10.89109
G1 X170.832 Y120.143 E10.90815
G1 X170.659 Y121.101 E10.97615
G1 X170.599 Y121.369 E10.99533
G1 X170.572 Y121.486 E11.00372
G1 X170.169 Y123.202 E11.12683
G1 X170.132 Y123.358 E11.13803
G1 X169.985 Y123.947 E11.18043
G1 X169.894 Y124.289 E11.20515
G1 X169.64 Y125.188 E11.2704
G1 X169.592 Y125.351 E11.28227
G1 X169.188 Y126.704 E11.38089
G1 X169.142 Y126.855 E11.39192
G1 X168.946 Y127.48 E11.43767
G1 X168.837 Y127.811 E11.46201
G1 X168.561 Y128.606 E11.52079
G1 X168.503 Y128.768 E11.53281
G1 X167.981 Y130.202 E11.6394
G1 X167.918 Y130.371 E11.65199
G1 X167.724 Y130.879 E11.68998
G1 X167.604 Y131.18 E11.71261
G1 X167.24 Y132.058 E11.77899
G1 X167.169 Y132.226 E11.79173
G1 X166.598 Y133.544 E11.89206
G1 X166.534 Y133.69 E11.90319
G1 X166.292 Y134.228 E11.9444
G1 X166.152 Y134.527 E11.96746
G1 X165.754 Y135.348 E12.03118
G1 X165.665 Y135.528 E12.04521
G1 X165.015 Y136.811 E12.14567
G1 X164.94 Y136.955 E12.15701
G1 X164.629 Y137.548 E12.20378
G1 X164.474 Y137.834 E12.2265
G1 X164.093 Y138.513 E12.28088
G1 X164.004 Y138.669 E12.29342
G1 X163.243 Y139.977 E12.39912
G1 X163.156 Y140.124 E12.41105
G1 X162.828 Y140.669 E12.45548
G1 X162.657 Y140.944 E12.4781
G1 X162.184 Y141.682 E12.53932
G1 X162.084 Y141.836 E12.55215
G1 X161.291 Y143.031 E12.65232
G1 X161.191 Y143.179 E12.66479
G1 X160.828 Y143.708 E12.70961
G1 X160.638 Y143.977 E12.73261
G1 X160.11 Y144.701 E12.7952
G1 X160.001 Y144.848 E12.80798
G1 X159.14 Y145.99 E12.90787
G1 X159.041 Y146.119 E12.91923
G1 X158.635 Y146.642 E12.96548
G1 X158.423 Y146.907 E12.98918
G1 X157.896 Y147.546 E13.04703
G1 X157.781 Y147.683 E13.05952
G1 X156.786 Y148.852 E13.16675
G1 X156.68 Y148.975 E13.17809
G1 X156.313 Y149.394 E13.21699
G1 X156.087 Y149.645 E13.24058
G1 X155.471 Y150.308 E13.30379
G1 X155.352 Y150.434 E13.3159
G1 X154.357 Y151.473 E13.41638
G1 X154.234 Y151.599 E13.42868
G1 X153.764 Y152.075 E13.4754
G1 X153.517 Y152.317 E13.49955
G1 X152.935 Y152.872 E13.55572
G1 X152.815 Y152.986 E13.56728
G1 X151.712 Y154.008 E13.67231
G1 X151.601 Y154.109 E13.68279
G1 X151.129 Y154.535 E13.7272
G1 X150.86 Y154.77 E13.75215
G1 X150.223 Y155.31 E13.81048
G1 X150.083 Y155.427 E13.82322
G1 X148.961 Y156.348 E13.92461
G1 X148.847 Y156.441 E13.93489
G1 X148.313 Y156.868 E13.98264
G1 X148.031 Y157.086 E14.00754
G1 X147.343 Y157.602 E14.06761
G1 X147.208 Y157.701 E14.0793
G1 X146.052 Y158.542 E14.17915
G1 X145.909 Y158.645 E14.19146
G1 X145.351 Y159.038 E14.23913
G1 X145.089 Y159.217 E14.26129
G1 X144.399 Y159.675 E14.31914
G1 X144.244 Y159.777 E14.3321
G1 X143.033 Y160.553 E14.43256
G1 X142.903 Y160.634 E14.44325
G1 X142.326 Y160.993 E14.49072
G1 X142.009 Y161.184 E14.51657
G1 X141.288 Y161.601 E14.57474
G1 X141.147 Y161.681 E14.58607
G1 X139.857 Y162.403 E14.68932
G1 X139.724 Y162.476 E14.69992
G1 X139.136 Y162.795 E14.74664
G1 X138.818 Y162.961 E14.7717
G1 X138.114 Y163.315 E14.82674
G1 X137.956 Y163.393 E14.83904
G1 X136.635 Y164.032 E14.94154
G1 X136.504 Y164.095 E14.95169
G1 X135.874 Y164.39 E15.00028
G1 X135.555 Y164.533 E15.0247
G1 X134.793 Y164.862 E15.08267
G1 X134.629 Y164.932 E15.09512
G1 X133.272 Y165.493 E15.19768
G1 X133.111 Y165.558 E15.20981
G1 X132.482 Y165.807 E15.25706
G1 X132.175 Y165.923 E15.27999
G1 X131.462 Y166.182 E15.33297
G1 X131.296 Y166.241 E15.34527
G1 X129.819 Y166.752 E15.45444
G1 X129.659 Y166.806 E15.46623
G1 X129.122 Y166.983 E15.50572
G1 X128.803 Y167.083 E15.52907
G1 X127.906 Y167.35 E15.59444
G1 X127.728 Y167.402 E15.6074
G1 X126.354 Y167.787 E15.70706
G1 X126.18 Y167.834 E15.71965
G1 X125.527 Y168.006 E15.76681
G1 X125.224 Y168.081 E15.78862
G1 X124.478 Y168.256 E15.84214
G1 X124.3 Y168.297 E15.85489
G1 X122.785 Y168.627 E15.96319
G1 X122.615 Y168.662 E15.97532
G1 X122.036 Y168.779 E16.01657
G1 X121.705 Y168.841 E16.0401
G1 X120.832 Y168.991 E16.10196
G1 X120.66 Y169.019 E16.11414
G1 X119.252 Y169.239 E16.21367
G1 X119.081 Y169.265 E16.22575
G1 X118.378 Y169.364 E16.27534
G1 X118.042 Y169.406 E16.29899
G1 X117.258 Y169.493 E16.35409
G1 X117.087 Y169.511 E16.3661
G1 X115.615 Y169.652 E16.46938
G1 X115.472 Y169.664 E16.4794
G1 X114.811 Y169.719 E16.52573
G1 X114.451 Y169.744 E16.55094
G1 X113.62 Y169.787 E16.60906
G1 X113.441 Y169.795 E16.62157
G1 X111.945 Y169.849 E16.72613
G1 X111.781 Y169.853 E16.73759
G1 X111.14 Y169.867 E16.78237
G1 X110.805 Y169.87 E16.80577
G1 X109.979 Y169.864 E16.86346
G1 X109.807 Y169.861 E16.87548
G1 X108.323 Y169.828 E16.97916
G1 X108.177 Y169.824 E16.98936
G1 X107.576 Y169.803 E17.03136
G1 X107.216 Y169.785 E17.05654
G1 X106.298 Y169.724 E17.1208
G1 X106.11 Y169.71 E17.13397
G1 X104.675 Y169.591 E17.23454
G1 X104.513 Y169.576 E17.2459
G1 X103.875 Y169.514 E17.29067
G1 X103.551 Y169.478 E17.31344
G1 X102.709 Y169.372 E17.37272
G1 X102.524 Y169.347 E17.38576
G1 X101.098 Y169.144 E17.48636
G1 X100.933 Y169.12 E17.49801
G1 X100.265 Y169.015 E17.54524
G1 X99.947 Y168.96 E17.56778
G1 X99.125 Y168.807 E17.62618
G1 X98.93 Y168.769 E17.64006
G1 X97.445 Y168.466 E17.74591
G1 X97.299 Y168.435 E17.75634
G1 X96.72 Y168.309 E17.79773
G1 X96.36 Y168.225 E17.82355
G1 X95.537 Y168.018 E17.88282
G1 X95.393 Y167.98 E17.89322
G1 X93.957 Y167.599 E17.99699
G1 X93.805 Y167.558 E18.00799
G1 X93.198 Y167.388 E18.05202
G1 X92.86 Y167.288 E18.07664
G1 X92.043 Y167.032 E18.13644
G1 X91.871 Y166.976 E18.14907
G1 X90.465 Y166.511 E18.25251
G1 X90.307 Y166.458 E18.26415
G1 X89.693 Y166.245 E18.30954
G1 X89.378 Y166.13 E18.33296
G1 X88.641 Y165.85 E18.38803
G1 X88.476 Y165.786 E18.40039
G1 X87.035 Y165.213 E18.5087
G1 X86.888 Y165.153 E18.51979
G1 X86.349 Y164.93 E18.56053
G1 X86.037 Y164.796 E18.58425
G1 X85.237 Y164.437 E18.6455
G1 X85.065 Y164.358 E18.65872
G1 X83.759 Y163.746 E18.75945
G1 X83.626 Y163.683 E18.76973
G1 X83.019 Y163.389 E18.81684
G1 X82.706 Y163.231 E18.84133
G1 X81.954 Y162.838 E18.9006
G1 X81.803 Y162.758 E18.91253
G1 X80.529 Y162.068 E19.01373
G1 X80.385 Y161.989 E19.0252
G1 X79.821 Y161.673 E19.07036
G1 X79.514 Y161.494 E19.09518
G1 X78.776 Y161.05 E19.15533
G1 X78.635 Y160.964 E19.16687
G1 X77.37 Y160.178 E19.27089
G1 X77.228 Y160.089 E19.2826
G1 X76.72 Y159.763 E19.32476
G1 X76.449 Y159.583 E19.34748
G1 X75.747 Y159.104 E19.40684
G1 X75.584 Y158.991 E19.42069
G1 X74.327 Y158.101 E19.52827
G1 X74.192 Y158.004 E19.53988
G1 X73.718 Y157.658 E19.58087
G1 X73.456 Y157.46 E19.6038
G1 X72.786 Y156.941 E19.663
G1 X72.64 Y156.827 E19.67594
G1 X71.486 Y155.903 E19.77919
G1 X71.363 Y155.803 E19.79027
G1 X70.87 Y155.397 E19.83487
G1 X70.607 Y155.174 E19.85896
G1 X69.942 Y154.592 E19.92068
G1 X69.81 Y154.474 E19.93305
G1 X68.731 Y153.5 E20.03458
G1 X68.615 Y153.394 E20.04555
G1 X68.144 Y152.957 E20.09043
G1 X67.898 Y152.722 E20.11419
G1 X67.317 Y152.15 E20.17114
G1 X67.187 Y152.019 E20.18403
G1 X66.164 Y150.979 E20.28592
G1 X66.06 Y150.873 E20.29629
G1 X65.574 Y150.366 E20.34535
G1 X65.336 Y150.11 E20.36976
G1 X64.803 Y149.519 E20.42535
G1 X64.683 Y149.383 E20.43802
G1 X63.666 Y148.219 E20.54598
G1 X63.552 Y148.087 E20.55816
G1 X63.158 Y147.622 E20.60073
G1 X62.951 Y147.37 E20.62351
G1 X62.46 Y146.756 E20.67842
G1 X62.348 Y146.614 E20.69105
G1 X61.398 Y145.387 E20.79944
G1 X61.3 Y145.259 E20.8107
G1 X60.939 Y144.779 E20.85265
G1 X60.736 Y144.5 E20.87675
G1 X60.246 Y143.806 E20.93608
G1 X60.145 Y143.661 E20.94843
G1 X59.338 Y142.48 E21.04833
G1 X59.246 Y142.343 E21.05986
G1 X58.83 Y141.715 E21.11247
G1 X58.647 Y141.43 E21.13613
G1 X58.254 Y140.797 E21.18817
G1 X58.165 Y140.651 E21.20011
G1 X57.409 Y139.392 E21.30269
G1 X57.32 Y139.242 E21.31487
G1 X56.972 Y138.642 E21.36332
G1 X56.815 Y138.363 E21.38568
G1 X56.433 Y137.66 E21.44156
G1 X56.344 Y137.491 E21.4549
G1 X55.647 Y136.156 E21.56009
G1 X55.566 Y135.999 E21.57243
G1 X55.283 Y135.436 E21.61644
G1 X55.142 Y135.144 E21.63909
G1 X54.778 Y134.366 E21.69908
G1 X54.704 Y134.205 E21.71146
G1 X54.09 Y132.838 E21.81613
G1 X54.025 Y132.691 E21.82735
G1 X53.791 Y132.15 E21.86852
G1 X53.667 Y131.851 E21.89113
G1 X53.349 Y131.055 E21.951
G1 X53.276 Y130.869 E21.96496
G1 X52.758 Y129.504 E22.06693
G1 X52.699 Y129.344 E22.07884
G1 X52.472 Y128.718 E22.12535
G1 X52.36 Y128.395 E22.14923
G1 X52.09 Y127.575 E22.20953
G1 X52.039 Y127.417 E22.22113
G1 X51.609 Y126.045 E22.32155
G1 X51.567 Y125.906 E22.33169
G1 X51.375 Y125.265 E22.37843
G1 X51.274 Y124.909 E22.40428
G1 X51.064 Y124.116 E22.46158
G1 X51.023 Y123.954 E22.47325
G1 X50.655 Y122.478 E22.5795
G1 X50.619 Y122.332 E22.59
G1 X50.485 Y121.763 E22.63083
G1 X50.412 Y121.432 E22.6545
G1 X50.234 Y120.562 E22.71653
G1 X50.197 Y120.373 E22.72998
G1 X49.93 Y118.947 E22.83131
G1 X49.897 Y118.759 E22.84464
G1 X49.788 Y118.118 E22.89006
G1 X49.739 Y117.809 E22.91191
G1 X49.621 Y116.979 E22.97047
G1 X49.599 Y116.809 E22.98244
G1 X49.415 Y115.36 E23.08446
G1 X49.395 Y115.192 E23.09628
G1 X49.32 Y114.523 E23.1433
G1 X49.287 Y114.192 E23.16653
G1 X49.221 Y113.396 E23.22232
G1 X49.207 Y113.208 E23.23548
G1 X49.105 Y111.671 E23.34307
G1 X49.096 Y111.516 E23.35392
G1 X49.064 Y110.911 E23.39624
G1 X49.051 Y110.567 E23.42028
G1 X49.032 Y109.736 E23.47834
G1 X49.029 Y109.552 E23.49119
G1 X49.019 Y108.096 E23.59289
G1 X49.019 Y107.952 E23.60295
G1 X49.023 Y107.249 E23.65205
G1 X49.03 Y106.903 E23.67622
G1 X49.059 Y106.093 E23.73283
G1 X49.067 Y105.917 E23.74514
G1 X49.144 Y104.411 E23.85046
G1 X49.154 Y104.237 E23.86264
G1 X49.194 Y103.634 E23.90485
G1 X49.22 Y103.316 E23.92713
G1 X49.298 Y102.488 E23.98522
G1 X49.318 Y102.29 E23.99912
G1 X49.487 Y100.777 E24.10546
G1 X49.507 Y100.609 E24.11727
G1 X49.582 Y100.017 E24.15895
G1 X49.628 Y99.692 E24.18188
G1 X49.762 Y98.832 E24.24267
G1 X49.793 Y98.646 E24.25584
G1 X50.05 Y97.157 E24.36138
G1 X50.077 Y97.005 E24.37216
G1 X50.182 Y96.442 E24.41217
G1 X50.248 Y96.112 E24.43567
G1 X50.44 Y95.227 E24.49892
G1 X50.481 Y95.049 E24.51168
G1 X50.802 Y93.675 E24.61023
G1 X50.841 Y93.513 E24.62187
G1 X51.012 Y92.826 E24.67132
G1 X51.097 Y92.504 E24.69458
G1 X51.303 Y91.768 E24.74796
G1 X51.354 Y91.589 E24.76096
G1 X51.799 Y90.093 E24.86998
G1 X51.848 Y89.933 E24.88167
