;FLAVOR:Marlin
;TIME:11195
;Filament used: 18.2572m
;Layer height: 0.28
;MINX:49.015
;MINY:50.13
;MINZ:0.28
;MAXX:170.974
;MAXY:169.875
;MAXZ:30.8
;Generated with Cura_SteamEngine 4.3.0
M140 S70
M105
M190 S70
M104 S210
M105
M109 S210
M82 ;absolute extrusion mode
M201 X500.00 Y500.00 Z100.00 E5000.00 ;Setup machine max acceleration
M203 X500.00 Y500.00 Z10.00 E50.00 ;Setup machine max feedrate
M204 P500.00 R1000.00 T500.00 ;Setup Print/Retract/Travel acceleration
M205 X8.00 Y8.00 Z0.40 E5.00 ;Setup Jerk
M220 S100 ;Reset Feedrate
M221 S100 ;Reset Flowrate

G28 ;Home

G92 E0 ;Reset Extruder
G1 Z2.0 F3000 ;Move Z Axis up
G1 X10.1 Y20 Z0.28 F5000.0 ;Move to start position
G1 X10.1 Y200.0 Z0.28 F1500.0 E15 ;Draw the first line
G1 X10.4 Y200.0 Z0.28 F5000.0 ;Move to side a little
G1 X10.4 Y20 Z0.28 F1500.0 E30 ;Draw the second line
G92 E0 ;Reset Extruder
G1 Z2.0 F3000 ;Move Z Axis up

G92 E0
G92 E0
G1 F2700 E-5
;LAYER_COUNT:110
;LAYER:0
M107
G0 F6000 X66.899 Y65.029 Z0.28
;TYPE:SKIRT
G1 F2700 E0
G1 F1200 X67.163 Y64.766 E0.02603
G1 X68.369 Y63.6 E0.14319
G1 X68.66 Y63.328 E0.17102
G1 X69.975 Y62.142 E0.2947
G1 X70.266 Y61.888 E0.32168
G1 X71.525 Y60.827 E0.43668
G1 X71.824 Y60.584 E0.46359
G1 X73.143 Y59.546 E0.58082
G1 X73.454 Y59.309 E0.60814
G1 X74.819 Y58.308 E0.72636
G1 X75.139 Y58.082 E0.75373
G1 X76.558 Y57.114 E0.8737
G1 X76.877 Y56.904 E0.90038
G1 X78.278 Y56.015 E1.01627
G1 X78.61 Y55.812 E1.04345
G1 X80.062 Y54.958 E1.16111
G1 X80.403 Y54.765 E1.18848
G1 X81.887 Y53.959 E1.30643
G1 X82.228 Y53.782 E1.33327
G1 X83.726 Y53.032 E1.45028
G1 X84.077 Y52.863 E1.47749
G1 X85.626 Y52.152 E1.59653
G1 X85.976 Y51.999 E1.62321
G1 X87.519 Y51.352 E1.74007
G1 X87.831 Y51.226 E1.76358
G1 X88.607 Y50.927 E1.82166
G1 X89.516 Y50.62 E1.88868
G1 X90.447 Y50.389 E1.95567
G1 X91.393 Y50.237 E2.0226
G1 X92.35 Y50.165 E2.08963
G1 X93.309 Y50.172 E2.15661
G1 X94.639 Y50.316 E2.25005
G1 X95.124 Y50.397 E2.2844
G1 X97.755 Y50.814 E2.47045
G1 X100.262 Y51.141 E2.64704
G1 X102.707 Y51.388 E2.81869
G1 X105.225 Y51.571 E2.99502
G1 X107.755 Y51.683 E3.17191
G1 X110.219 Y51.723 E3.34403
G1 X112.716 Y51.692 E3.51845
G1 X115.233 Y51.591 E3.6944
G1 X117.741 Y51.417 E3.86999
G1 X120.231 Y51.175 E4.04473
G1 X122.671 Y50.868 E4.2165
G1 X125.854 Y50.364 E4.44159
G1 X126.209 Y50.302 E4.46676
G1 X127.16 Y50.176 E4.53376
G1 X128.118 Y50.13 E4.60075
G1 X129.076 Y50.164 E4.66771
G1 X130.028 Y50.278 E4.73467
G1 X130.968 Y50.47 E4.80169
G1 X132.304 Y50.89 E4.8995
G1 X133.124 Y51.204 E4.96083
G1 X133.43 Y51.326 E4.98384
G1 X134.872 Y51.926 E5.09293
G1 X135.217 Y52.077 E5.11923
G1 X136.74 Y52.77 E5.23611
G1 X137.086 Y52.934 E5.26285
G1 X138.546 Y53.658 E5.37667
G1 X138.888 Y53.835 E5.40357
G1 X140.387 Y54.642 E5.52248
G1 X140.726 Y54.832 E5.54962
G1 X142.159 Y55.667 E5.66547
G1 X142.47 Y55.855 E5.69085
G1 X143.86 Y56.725 E5.80538
G1 X144.189 Y56.939 E5.8328
G1 X145.568 Y57.869 E5.94897
G1 X145.879 Y58.086 E5.97546
G1 X147.188 Y59.033 E6.0883
G1 X147.49 Y59.259 E6.11465
G1 X148.813 Y60.284 E6.23155
G1 X149.116 Y60.527 E6.25867
G1 X150.429 Y61.617 E6.37787
G1 X150.713 Y61.861 E6.40402
G1 X151.923 Y62.934 E6.51697
G1 X152.204 Y63.192 E6.54362
G1 X153.393 Y64.319 E6.65804
G1 X153.668 Y64.588 E6.68491
G1 X154.847 Y65.783 E6.80217
G1 X155.109 Y66.057 E6.82864
G1 X156.234 Y67.275 E6.94445
G1 X156.483 Y67.554 E6.97057
G1 X157.586 Y68.829 E7.08833
G1 X157.841 Y69.134 E7.11609
G1 X158.853 Y70.389 E7.2287
G1 X159.077 Y70.676 E7.25413
G1 X160.059 Y71.976 E7.36792
G1 X160.284 Y72.285 E7.39462
G1 X161.259 Y73.669 E7.51287
G1 X161.477 Y73.99 E7.53997
G1 X162.372 Y75.356 E7.65403
G1 X162.573 Y75.673 E7.68025
G1 X163.444 Y77.102 E7.79714
G1 X163.638 Y77.433 E7.82394
G1 X164.437 Y78.848 E7.93744
G1 X164.614 Y79.174 E7.96335
G1 X165.393 Y80.664 E8.08078
G1 X165.568 Y81.013 E8.10805
G1 X166.287 Y82.51 E8.22405
G1 X166.447 Y82.857 E8.25074
G1 X167.104 Y84.35 E8.36467
G1 X167.251 Y84.699 E8.39112
G1 X167.879 Y86.264 E8.5089
G1 X167.998 Y86.575 E8.53216
G1 X168.277 Y87.333 E8.58857
G1 X168.571 Y88.246 E8.65557
G1 X168.787 Y89.18 E8.72253
G1 X168.953 Y90.445 E8.81164
G1 X168.968 Y90.645 E8.82565
G1 X168.999 Y91.376 E8.87675
G1 X169.004 Y91.823 E8.90798
G1 X169.005 Y91.952 E8.91699
G1 X169.005 Y98.499 E9.37427
G1 X169.042 Y101.086 E9.55498
G1 X169.149 Y103.612 E9.73157
G1 X169.324 Y106.084 E9.90466
G1 X169.572 Y108.584 E10.08013
G1 X169.888 Y111.052 E10.25392
G1 X170.279 Y113.544 E10.43011
G1 X170.782 Y116.245 E10.62201
G1 X170.918 Y117.194 E10.68897
G1 X170.974 Y118.151 E10.75593
G1 X170.951 Y119.11 E10.82293
G1 X170.771 Y120.512 E10.92166
G1 X170.604 Y121.384 E10.98367
G1 X170.492 Y121.905 E11.02089
G1 X170.103 Y123.526 E11.13733
G1 X170.009 Y123.888 E11.16345
G1 X169.567 Y125.497 E11.27999
G1 X169.456 Y125.876 E11.30758
G1 X168.94 Y127.53 E11.42859
G1 X168.817 Y127.902 E11.45596
G1 X168.277 Y129.446 E11.57021
G1 X168.145 Y129.804 E11.59686
G1 X167.527 Y131.399 E11.71633
G1 X167.382 Y131.757 E11.74331
G1 X166.725 Y133.297 E11.86026
G1 X166.563 Y133.659 E11.88796
G1 X165.838 Y135.208 E12.00741
G1 X165.672 Y135.548 E12.03384
G1 X164.92 Y137.026 E12.14967
G1 X164.735 Y137.374 E12.17719
G1 X163.922 Y138.845 E12.29459
G1 X163.728 Y139.182 E12.32175
G1 X162.844 Y140.661 E12.44209
G1 X162.64 Y140.99 E12.46913
G1 X161.763 Y142.351 E12.58222
G1 X161.557 Y142.659 E12.6081
G1 X160.598 Y144.047 E12.72594
G1 X160.37 Y144.366 E12.75332
G1 X159.352 Y145.737 E12.87259
G1 X159.107 Y146.054 E12.90058
G1 X158.036 Y147.396 E13.0205
G1 X157.796 Y147.688 E13.0469
G1 X156.743 Y148.922 E13.16021
G1 X156.485 Y149.214 E13.18742
G1 X155.322 Y150.487 E13.30786
G1 X155.05 Y150.774 E13.33548
G1 X153.851 Y151.999 E13.4552
G1 X153.573 Y152.274 E13.48251
G1 X152.345 Y153.446 E13.60108
G1 X152.068 Y153.702 E13.62742
G1 X150.856 Y154.785 E13.74095
G1 X150.562 Y155.039 E13.76809
G1 X149.219 Y156.16 E13.89027
G1 X148.909 Y156.41 E13.91809
G1 X147.628 Y157.406 E14.03142
G1 X147.329 Y157.63 E14.05752
G1 X145.939 Y158.64 E14.17753
G1 X145.614 Y158.868 E14.20526
G1 X144.213 Y159.814 E14.32333
G1 X143.888 Y160.026 E14.35043
G1 X142.456 Y160.924 E14.46849
G1 X142.125 Y161.124 E14.49551
G1 X140.678 Y161.965 E14.6124
G1 X140.337 Y162.155 E14.63967
G1 X138.85 Y162.953 E14.75754
G1 X138.506 Y163.13 E14.78456
G1 X136.994 Y163.877 E14.90235
G1 X136.65 Y164.04 E14.92894
G1 X135.122 Y164.733 E15.04613
G1 X134.768 Y164.887 E15.0731
G1 X133.257 Y165.512 E15.18731
G1 X132.901 Y165.652 E15.21402
G1 X131.278 Y166.261 E15.3351
G1 X130.893 Y166.398 E15.36365
G1 X129.258 Y166.946 E15.48409
G1 X128.901 Y167.059 E15.51024
G1 X127.371 Y167.517 E15.62179
G1 X126.997 Y167.622 E15.64892
G1 X125.278 Y168.074 E15.77307
G1 X124.903 Y168.166 E15.80004
G1 X123.315 Y168.527 E15.91379
G1 X122.922 Y168.609 E15.94183
G1 X121.214 Y168.935 E16.06328
G1 X120.838 Y169 E16.08993
G1 X119.204 Y169.256 E16.20545
G1 X118.826 Y169.309 E16.23211
G1 X117.157 Y169.514 E16.34956
G1 X116.771 Y169.555 E16.37667
G1 X115.103 Y169.703 E16.49363
G1 X114.717 Y169.731 E16.52067
G1 X112.986 Y169.826 E16.64175
G1 X112.589 Y169.841 E16.6695
G1 X110.96 Y169.874 E16.7833
G1 X110.596 Y169.875 E16.80873
G1 X108.932 Y169.856 E16.92496
G1 X108.533 Y169.845 E16.95284
G1 X106.756 Y169.763 E17.07709
G1 X106.367 Y169.738 E17.10431
G1 X104.771 Y169.61 E17.21615
G1 X104.382 Y169.572 E17.24345
G1 X102.661 Y169.375 E17.36444
G1 X102.281 Y169.325 E17.39121
G1 X100.684 Y169.088 E17.50397
G1 X100.298 Y169.024 E17.5313
G1 X98.569 Y168.707 E17.65408
G1 X98.191 Y168.632 E17.681
G1 X96.587 Y168.282 E17.79566
G1 X96.206 Y168.192 E17.82301
G1 X94.526 Y167.765 E17.94408
G1 X94.151 Y167.662 E17.97124
G1 X92.571 Y167.203 E18.08616
G1 X92.204 Y167.09 E18.11298
G1 X90.559 Y166.552 E18.23387
G1 X90.192 Y166.425 E18.261
G1 X88.619 Y165.851 E18.37795
G1 X88.251 Y165.71 E18.40548
G1 X86.71 Y165.087 E18.52157
G1 X86.348 Y164.933 E18.54905
G1 X84.778 Y164.235 E18.66906
G1 X84.437 Y164.077 E18.69531
G1 X82.936 Y163.35 E18.8118
G1 X82.588 Y163.174 E18.83903
G1 X81.081 Y162.38 E18.95801
G1 X80.74 Y162.193 E18.98517
G1 X79.295 Y161.368 E19.10139
G1 X78.96 Y161.169 E19.12861
G1 X77.512 Y160.276 E19.24743
G1 X77.185 Y160.067 E19.27454
G1 X75.752 Y159.115 E19.3947
G1 X75.433 Y158.895 E19.42177
G1 X74.111 Y157.951 E19.53523
G1 X73.8 Y157.721 E19.56225
G1 X72.419 Y156.663 E19.68376
G1 X72.113 Y156.42 E19.71105
G1 X70.835 Y155.37 E19.82658
G1 X70.534 Y155.114 E19.85417
G1 X69.233 Y153.968 E19.97527
G1 X68.948 Y153.708 E20.00222
G1 X67.754 Y152.583 E20.1168
G1 X67.481 Y152.318 E20.14337
G1 X66.276 Y151.105 E20.2628
G1 X66.005 Y150.823 E20.29011
G1 X64.858 Y149.587 E20.40789
G1 X64.6 Y149.299 E20.4349
G1 X63.509 Y148.041 E20.5512
G1 X63.263 Y147.746 E20.57803
G1 X62.203 Y146.438 E20.69562
G1 X61.959 Y146.128 E20.72318
G1 X60.917 Y144.748 E20.84396
G1 X60.69 Y144.436 E20.87091
G1 X59.747 Y143.096 E20.98535
G1 X59.533 Y142.781 E21.01195
G1 X58.615 Y141.38 E21.12894
G1 X58.405 Y141.048 E21.15638
G1 X57.526 Y139.601 E21.27464
G1 X57.33 Y139.264 E21.30187
G1 X56.496 Y137.78 E21.42076
G1 X56.316 Y137.447 E21.4472
G1 X55.54 Y135.953 E21.56479
G1 X55.361 Y135.594 E21.59281
G1 X54.63 Y134.058 E21.71162
G1 X54.469 Y133.704 E21.73879
G1 X53.802 Y132.171 E21.85556
G1 X53.658 Y131.825 E21.88173
G1 X53.027 Y130.235 E22.00121
G1 X52.886 Y129.861 E22.02913
G1 X52.326 Y128.293 E22.14543
G1 X52.205 Y127.935 E22.17182
G1 X51.69 Y126.328 E22.28969
G1 X51.577 Y125.954 E22.31698
G1 X51.123 Y124.352 E22.43328
G1 X51.024 Y123.978 E22.4603
G1 X50.617 Y122.333 E22.57866
G1 X50.531 Y121.958 E22.60553
G1 X50.18 Y120.304 E22.72363
G1 X50.102 Y119.905 E22.75203
G1 X49.807 Y118.224 E22.87123
G1 X49.749 Y117.856 E22.89725
G1 X49.519 Y116.24 E23.01126
G1 X49.472 Y115.867 E23.03752
G1 X49.288 Y114.18 E23.15605
G1 X49.251 Y113.782 E23.18397
G1 X49.124 Y112.067 E23.30408
G1 X49.102 Y111.671 E23.33178
G1 X49.035 Y109.972 E23.45055
G1 X49.026 Y109.597 E23.47675
G1 X49.015 Y107.973 E23.59018
G1 X49.019 Y107.586 E23.61721
G1 X49.066 Y105.84 E23.73921
G1 X49.083 Y105.449 E23.76654
G1 X49.184 Y103.793 E23.88242
G1 X49.214 Y103.406 E23.90953
G1 X49.376 Y101.699 E24.0293
G1 X49.421 Y101.306 E24.05693
G1 X49.634 Y99.665 E24.17251
G1 X49.689 Y99.285 E24.19932
G1 X49.962 Y97.619 E24.31724
G1 X50.031 Y97.238 E24.34428
G1 X50.362 Y95.572 E24.46292
G1 X50.444 Y95.193 E24.49001
G1 X50.824 Y93.569 E24.6065
G1 X50.92 Y93.191 E24.63374
G1 X51.369 Y91.528 E24.75405
G1 X51.475 Y91.16 E24.7808
G1 X51.955 Y89.592 E24.89534
G1 X52.074 Y89.225 E24.92229
G1 X52.64 Y87.576 E25.04406
G1 X52.775 Y87.203 E25.07176
G1 X53.356 Y85.683 E25.18542
G1 X53.501 Y85.323 E25.21253
G1 X54.166 Y83.745 E25.33213
G1 X54.32 Y83.394 E25.35891
G1 X55.035 Y81.844 E25.47813
G1 X55.205 Y81.493 E25.50537
G1 X55.938 Y80.036 E25.61929
G1 X56.111 Y79.705 E25.64538
G1 X56.925 Y78.21 E25.76427
G1 X57.12 Y77.865 E25.79195
G1 X57.982 Y76.404 E25.91043
G1 X58.19 Y76.066 E25.93816
G1 X59.115 Y74.615 E26.05834
G1 X59.333 Y74.285 E26.08597
G1 X60.268 Y72.924 E26.2013
G1 X60.483 Y72.622 E26.22719
G1 X61.487 Y71.257 E26.34555
G1 X61.726 Y70.943 E26.37311
G1 X62.778 Y69.611 E26.49166
G1 X63.024 Y69.311 E26.51876
G1 X64.09 Y68.051 E26.63404
G1 X64.343 Y67.761 E26.66092
G1 X65.518 Y66.463 E26.78321
G1 X65.787 Y66.176 E26.81068
G1 X66.899 Y65.029 E26.92226
G0 F6000 X67.33 Y65.447
G1 F1200 X67.58 Y65.198 E26.94691
G1 X68.786 Y64.032 E27.06407
G1 X69.062 Y63.774 E27.09046
G1 X70.377 Y62.588 E27.21415
G1 X70.653 Y62.347 E27.23974
G1 X71.912 Y61.286 E27.35474
G1 X72.195 Y61.055 E27.38025
G1 X73.514 Y60.017 E27.49749
G1 X73.809 Y59.793 E27.52336
G1 X75.174 Y58.792 E27.64159
G1 X75.477 Y58.578 E27.6675
G1 X76.896 Y57.61 E27.78748
G1 X77.199 Y57.411 E27.81279
G1 X78.6 Y56.522 E27.92869
G1 X78.914 Y56.33 E27.95439
G1 X80.366 Y55.476 E28.07205
G1 X80.69 Y55.293 E28.09804
G1 X82.174 Y54.487 E28.216
G1 X82.496 Y54.318 E28.2414
G1 X83.994 Y53.568 E28.35841
G1 X84.327 Y53.409 E28.38418
G1 X85.876 Y52.698 E28.50323
G1 X86.208 Y52.552 E28.52856
G1 X87.751 Y51.905 E28.64542
G1 X88.047 Y51.786 E28.6677
G1 X88.823 Y51.487 E28.72579
G1 X89.708 Y51.189 E28.79101
G1 X90.615 Y50.968 E28.85622
G1 X91.537 Y50.825 E28.92139
G1 X92.469 Y50.761 E28.98664
G1 X93.402 Y50.778 E29.05181
G1 X94.54 Y50.907 E29.13181
G1 X95.12 Y51.004 E29.17288
G1 X97.653 Y51.406 E29.35202
G1 X100.164 Y51.733 E29.52888
G1 X102.705 Y51.99 E29.70727
G1 X105.192 Y52.171 E29.88143
G1 X107.682 Y52.281 E30.05552
G1 X110.251 Y52.323 E30.23498
G1 X112.749 Y52.292 E30.40947
G1 X115.264 Y52.19 E30.58528
G1 X117.767 Y52.017 E30.76052
G1 X120.289 Y51.772 E30.9375
G1 X122.781 Y51.459 E31.11292
G1 X125.923 Y50.961 E31.33512
G1 X126.312 Y50.893 E31.3627
G1 X127.238 Y50.772 E31.42793
G1 X128.171 Y50.73 E31.49316
G1 X129.104 Y50.768 E31.55838
G1 X130.03 Y50.886 E31.62358
G1 X130.942 Y51.083 E31.68875
G1 X132.09 Y51.451 E31.77296
G1 X132.91 Y51.765 E31.83428
G1 X133.199 Y51.88 E31.85601
G1 X134.641 Y52.48 E31.9651
G1 X134.968 Y52.623 E31.99003
G1 X136.491 Y53.316 E32.1069
G1 X136.819 Y53.472 E32.13227
G1 X138.279 Y54.196 E32.24609
G1 X138.604 Y54.363 E32.27161
G1 X140.103 Y55.17 E32.39052
G1 X140.424 Y55.35 E32.41623
G1 X141.857 Y56.185 E32.53207
G1 X142.152 Y56.364 E32.55617
G1 X143.542 Y57.234 E32.6707
G1 X143.854 Y57.436 E32.69667
G1 X145.233 Y58.366 E32.81284
G1 X145.527 Y58.572 E32.83791
G1 X146.836 Y59.519 E32.95076
G1 X147.123 Y59.733 E32.97577
G1 X148.446 Y60.758 E33.09266
G1 X148.732 Y60.988 E33.1183
G1 X150.045 Y62.078 E33.23749
G1 X150.315 Y62.31 E33.26235
G1 X151.525 Y63.383 E33.37531
G1 X151.791 Y63.627 E33.40052
G1 X152.98 Y64.754 E33.51494
G1 X153.241 Y65.01 E33.54048
G1 X154.42 Y66.205 E33.65773
G1 X154.668 Y66.464 E33.68278
G1 X155.793 Y67.682 E33.79859
G1 X156.029 Y67.947 E33.82337
G1 X157.132 Y69.222 E33.94113
G1 X157.374 Y69.511 E33.96745
G1 X158.386 Y70.766 E34.08006
G1 X158.598 Y71.038 E34.10415
G1 X159.58 Y72.338 E34.21794
G1 X159.794 Y72.63 E34.24323
G1 X160.769 Y74.014 E34.36147
G1 X160.975 Y74.318 E34.38712
G1 X161.87 Y75.684 E34.50119
G1 X162.06 Y75.985 E34.52605
G1 X162.931 Y77.414 E34.64294
G1 X163.115 Y77.728 E34.66836
G1 X163.914 Y79.143 E34.78186
G1 X164.082 Y79.452 E34.80642
G1 X164.861 Y80.942 E34.92386
G1 X165.027 Y81.273 E34.94972
G1 X165.746 Y82.77 E35.06572
G1 X165.898 Y83.099 E35.09103
G1 X166.555 Y84.592 E35.20496
G1 X166.694 Y84.923 E35.23004
G1 X167.322 Y86.488 E35.34782
G1 X167.435 Y86.782 E35.36982
G1 X167.714 Y87.54 E35.42623
G1 X167.999 Y88.429 E35.49144
G1 X168.206 Y89.339 E35.55662
G1 X168.354 Y90.49 E35.63768
G1 X168.369 Y90.69 E35.65169
G1 X168.399 Y91.383 E35.70014
G1 X168.404 Y91.83 E35.73136
G1 X168.405 Y91.952 E35.73988
G1 X168.405 Y98.508 E36.19779
G1 X168.442 Y101.121 E36.38032
G1 X168.548 Y103.61 E36.55433
G1 X168.728 Y106.148 E36.73204
G1 X168.975 Y108.649 E36.90758
G1 X169.296 Y111.151 E37.08376
G1 X169.686 Y113.636 E37.25946
G1 X170.192 Y116.354 E37.45256
G1 X170.323 Y117.279 E37.51781
G1 X170.375 Y118.211 E37.58301
G1 X170.347 Y119.144 E37.64821
G1 X170.181 Y120.399 E37.73663
G1 X170.014 Y121.271 E37.79864
G1 X169.908 Y121.765 E37.83393
G1 X169.519 Y123.386 E37.95037
G1 X169.431 Y123.729 E37.9751
G1 X168.989 Y125.338 E38.09164
G1 X168.883 Y125.697 E38.11779
G1 X168.367 Y127.351 E38.23881
G1 X168.251 Y127.703 E38.26469
G1 X167.711 Y129.247 E38.37894
G1 X167.586 Y129.587 E38.40424
G1 X166.968 Y131.182 E38.52372
G1 X166.83 Y131.521 E38.54928
G1 X166.173 Y133.061 E38.66623
G1 X166.019 Y133.405 E38.69255
G1 X165.294 Y134.954 E38.81201
G1 X165.137 Y135.276 E38.83703
G1 X164.385 Y136.754 E38.95285
G1 X164.21 Y137.084 E38.97894
G1 X163.397 Y138.555 E39.09634
G1 X163.213 Y138.874 E39.12206
G1 X162.329 Y140.353 E39.24241
G1 X162.135 Y140.665 E39.26807
G1 X161.258 Y142.026 E39.38115
G1 X161.064 Y142.318 E39.40564
G1 X160.105 Y143.706 E39.52348
G1 X159.888 Y144.008 E39.54945
G1 X158.87 Y145.379 E39.66872
G1 X158.639 Y145.68 E39.69522
G1 X157.568 Y147.022 E39.81515
G1 X157.34 Y147.298 E39.84015
G1 X156.287 Y148.532 E39.95346
G1 X156.042 Y148.809 E39.97929
G1 X154.879 Y150.082 E40.09972
G1 X154.622 Y150.354 E40.12586
G1 X153.423 Y151.579 E40.24558
G1 X153.159 Y151.84 E40.27151
G1 X151.931 Y153.012 E40.39008
