;FLAVOR:Marlin
;TIME:9627
;Filament used: 14.4294m
;Layer height: 0.28
;MINX:49.018
;MINY:50.128
;MINZ:0.28
;MAXX:170.974
;MAXY:169.868
;MAXZ:28.84
;Generated with Cura_SteamEngine 4.3.0
M140 S70
M105
M190 S70
M104 S210
M105
M109 S210
M82 ;absolute extrusion mode
M201 X500.00 Y500.00 Z100.00 E5000.00 ;Setup machine max acceleration
M203 X500.00 Y500.00 Z10.00 E50.00 ;Setup machine max feedrate
M204 P500.00 R1000.00 T500.00 ;Setup Print/Retract/Travel acceleration
M205 X8.00 Y8.00 Z0.40 E5.00 ;Setup Jerk
M220 S100 ;Reset Feedrate
M221 S100 ;Reset Flowrate

G28 ;Home

G92 E0 ;Reset Extruder
G1 Z2.0 F3000 ;Move Z Axis up
G1 X10.1 Y20 Z0.28 F5000.0 ;Move to start position
G1 X10.1 Y200.0 Z0.28 F1500.0 E15 ;Draw the first line
G1 X10.4 Y200.0 Z0.28 F5000.0 ;Move to side a little
G1 X10.4 Y20 Z0.28 F1500.0 E30 ;Draw the second line
G92 E0 ;Reset Extruder
G1 Z2.0 F3000 ;Move Z Axis up

G92 E0
G92 E0
G1 F2700 E-5
;LAYER_COUNT:103
;LAYER:0
M107
G0 F6000 X67.044 Y64.882 Z0.28
;TYPE:SKIRT
G1 F2700 E0
G1 F1200 X67.323 Y64.605 E0.02746
G1 X68.579 Y63.401 E0.14898
G1 X68.86 Y63.14 E0.17577
G1 X70.078 Y62.048 E0.29003
G1 X70.37 Y61.796 E0.31697
G1 X71.658 Y60.717 E0.43433
G1 X71.953 Y60.478 E0.46084
G1 X73.262 Y59.453 E0.57697
G1 X73.573 Y59.218 E0.60419
G1 X74.935 Y58.224 E0.72197
G1 X75.248 Y58.003 E0.74873
G1 X76.635 Y57.06 E0.86587
G1 X76.961 Y56.846 E0.89311
G1 X78.372 Y55.955 E1.00967
G1 X78.701 Y55.755 E1.03656
G1 X80.103 Y54.934 E1.15004
G1 X80.426 Y54.752 E1.17594
G1 X81.936 Y53.932 E1.29595
G1 X82.281 Y53.752 E1.32313
G1 X83.745 Y53.02 E1.43746
G1 X84.092 Y52.854 E1.46432
G1 X85.648 Y52.14 E1.5839
G1 X86.002 Y51.985 E1.61089
G1 X87.48 Y51.366 E1.72281
G1 X87.789 Y51.241 E1.74609
G1 X88.62 Y50.921 E1.80829
G1 X89.529 Y50.614 E1.8753
G1 X90.46 Y50.384 E1.94229
G1 X91.407 Y50.232 E2.00928
G1 X92.363 Y50.16 E2.07624
G1 X93.322 Y50.167 E2.14322
G1 X94.564 Y50.296 E2.23044
G1 X95.812 Y50.495 E2.31871
G1 X98.363 Y50.884 E2.49895
G1 X100.847 Y51.19 E2.67376
G1 X103.351 Y51.427 E2.84943
G1 X105.836 Y51.592 E3.02338
G1 X108.372 Y51.689 E3.20064
G1 X110.826 Y51.712 E3.37205
G1 X113.365 Y51.665 E3.54942
G1 X115.845 Y51.549 E3.72283
G1 X118.316 Y51.362 E3.89592
G1 X120.853 Y51.099 E4.07406
G1 X123.297 Y50.775 E4.24626
G1 X125.832 Y50.366 E4.42561
G1 X126.203 Y50.301 E4.45192
G1 X127.154 Y50.175 E4.51892
G1 X128.112 Y50.128 E4.58592
G1 X129.07 Y50.161 E4.65287
G1 X130.022 Y50.274 E4.71983
G1 X130.962 Y50.466 E4.78684
G1 X132.29 Y50.883 E4.88406
G1 X133.006 Y51.156 E4.93758
G1 X133.323 Y51.282 E4.96141
G1 X134.882 Y51.93 E5.07933
G1 X135.23 Y52.081 E5.10583
G1 X136.751 Y52.773 E5.22254
G1 X137.102 Y52.94 E5.24969
G1 X138.595 Y53.681 E5.36611
G1 X138.938 Y53.858 E5.39307
G1 X140.378 Y54.634 E5.50732
G1 X140.703 Y54.817 E5.53337
G1 X142.108 Y55.634 E5.64689
G1 X142.432 Y55.829 E5.67331
G1 X143.864 Y56.726 E5.79133
G1 X144.187 Y56.936 E5.81824
G1 X145.583 Y57.877 E5.93583
G1 X145.897 Y58.097 E5.96261
G1 X147.189 Y59.032 E6.074
G1 X147.493 Y59.259 E6.1005
G1 X148.828 Y60.294 E6.21848
G1 X149.121 Y60.529 E6.24472
G1 X150.389 Y61.58 E6.35975
G1 X150.686 Y61.835 E6.38709
G1 X151.953 Y62.96 E6.50544
G1 X152.23 Y63.214 E6.53169
G1 X153.41 Y64.333 E6.64527
G1 X153.681 Y64.599 E6.6718
G1 X154.832 Y65.765 E6.78623
G1 X155.094 Y66.039 E6.81271
G1 X156.238 Y67.277 E6.93045
G1 X156.494 Y67.564 E6.95731
G1 X157.573 Y68.813 E7.07259
G1 X157.817 Y69.104 E7.09912
G1 X158.847 Y70.379 E7.2136
G1 X159.075 Y70.671 E7.23948
G1 X160.057 Y71.97 E7.35321
G1 X160.286 Y72.285 E7.38041
G1 X161.259 Y73.667 E7.49847
G1 X161.475 Y73.984 E7.52526
G1 X162.399 Y75.394 E7.64301
G1 X162.602 Y75.715 E7.66953
G1 X163.437 Y77.086 E7.78165
G1 X163.63 Y77.415 E7.8083
G1 X164.462 Y78.889 E7.92652
G1 X164.643 Y79.223 E7.95305
G1 X165.389 Y80.653 E8.06571
G1 X165.553 Y80.981 E8.09132
G1 X166.266 Y82.461 E8.20606
G1 X166.432 Y82.82 E8.23369
G1 X167.107 Y84.354 E8.35075
G1 X167.252 Y84.698 E8.37682
G1 X167.868 Y86.231 E8.49222
G1 X167.986 Y86.538 E8.51519
G1 X168.272 Y87.313 E8.57289
G1 X168.566 Y88.225 E8.63982
G1 X168.783 Y89.159 E8.70679
G1 X168.922 Y90.108 E8.77378
G1 X168.98 Y91.053 E8.83991
G1 X168.993 Y91.673 E8.88322
G1 X168.996 Y91.911 E8.89985
G1 X168.998 Y98.479 E9.3586
G1 X169.036 Y101.103 E9.5419
G1 X169.142 Y103.571 E9.71444
G1 X169.318 Y106.055 E9.88837
G1 X169.571 Y108.598 E10.06686
G1 X169.882 Y111.021 E10.23749
G1 X170.275 Y113.525 E10.41453
G1 X170.781 Y116.235 E10.60708
G1 X170.917 Y117.184 E10.67404
G1 X170.974 Y118.141 E10.741
G1 X170.951 Y119.1 E10.80801
G1 X170.774 Y120.489 E10.90581
G1 X170.611 Y121.348 E10.96688
G1 X170.499 Y121.871 E11.00423
G1 X170.117 Y123.473 E11.11926
G1 X170.019 Y123.858 E11.14701
G1 X169.564 Y125.511 E11.26676
G1 X169.457 Y125.874 E11.29319
G1 X168.98 Y127.408 E11.4054
G1 X168.86 Y127.772 E11.43217
G1 X168.288 Y129.416 E11.55375
G1 X168.152 Y129.787 E11.58135
G1 X167.567 Y131.299 E11.69458
G1 X167.426 Y131.647 E11.72081
G1 X166.76 Y133.214 E11.83973
G1 X166.606 Y133.56 E11.86619
G1 X165.926 Y135.024 E11.97893
G1 X165.761 Y135.364 E12.00533
G1 X165.008 Y136.855 E12.122
G1 X164.828 Y137.198 E12.14905
G1 X164.012 Y138.687 E12.26765
G1 X163.809 Y139.042 E12.29621
G1 X162.925 Y140.527 E12.41692
G1 X162.733 Y140.838 E12.44245
G1 X161.876 Y142.179 E12.55361
G1 X161.664 Y142.499 E12.58042
G1 X160.689 Y143.918 E12.70067
G1 X160.466 Y144.231 E12.72751
G1 X159.471 Y145.58 E12.84459
G1 X159.23 Y145.895 E12.87229
G1 X158.185 Y147.214 E12.98983
G1 X157.948 Y147.504 E13.01599
G1 X156.893 Y148.75 E13.13003
G1 X156.64 Y149.039 E13.15685
G1 X155.517 Y150.279 E13.2737
G1 X155.248 Y150.566 E13.30118
G1 X154.053 Y151.798 E13.42106
G1 X153.778 Y152.071 E13.44812
G1 X152.592 Y153.214 E13.56317
G1 X152.317 Y153.471 E13.58946
G1 X151.086 Y154.582 E13.70528
G1 X150.794 Y154.837 E13.73236
G1 X149.5 Y155.928 E13.85057
G1 X149.209 Y156.165 E13.87679
G1 X147.902 Y157.196 E13.99306
G1 X147.586 Y157.437 E14.02082
G1 X146.213 Y158.445 E14.13979
G1 X145.896 Y158.67 E14.16694
G1 X144.56 Y159.583 E14.27996
G1 X144.251 Y159.786 E14.30578
G1 X142.845 Y160.682 E14.42223
G1 X142.512 Y160.887 E14.44955
G1 X141.069 Y161.739 E14.56659
G1 X140.744 Y161.923 E14.59268
G1 X139.259 Y162.736 E14.71093
G1 X138.902 Y162.924 E14.73911
G1 X137.392 Y163.683 E14.85715
G1 X137.062 Y163.842 E14.88273
G1 X135.573 Y164.532 E14.99736
G1 X135.211 Y164.692 E15.025
G1 X133.636 Y165.357 E15.14441
G1 X133.279 Y165.501 E15.1713
G1 X131.766 Y166.081 E15.28448
G1 X131.406 Y166.212 E15.31124
G1 X129.774 Y166.776 E15.43184
G1 X129.408 Y166.896 E15.45874
G1 X127.849 Y167.377 E15.5727
G1 X127.476 Y167.485 E15.59982
G1 X125.821 Y167.935 E15.71961
G1 X125.462 Y168.027 E15.7455
G1 X123.934 Y168.39 E15.85519
G1 X123.562 Y168.472 E15.8818
G1 X121.841 Y168.821 E16.00445
G1 X121.437 Y168.895 E16.03314
G1 X119.797 Y169.167 E16.14925
G1 X119.434 Y169.221 E16.17489
G1 X117.776 Y169.442 E16.29171
G1 X117.388 Y169.487 E16.319
G1 X115.749 Y169.649 E16.43403
G1 X115.365 Y169.681 E16.46095
G1 X113.66 Y169.792 E16.58029
G1 X113.281 Y169.81 E16.60679
G1 X111.655 Y169.862 E16.72042
G1 X111.28 Y169.868 E16.74661
G1 X109.563 Y169.867 E16.86654
G1 X109.171 Y169.86 E16.89392
G1 X107.531 Y169.803 E17.00854
G1 X107.137 Y169.783 E17.03609
G1 X105.4 Y169.663 E17.15771
G1 X105.022 Y169.63 E17.18421
G1 X103.44 Y169.468 E17.29528
G1 X103.061 Y169.423 E17.32194
G1 X101.363 Y169.192 E17.44163
G1 X100.975 Y169.133 E17.46904
G1 X99.337 Y168.853 E17.58511
G1 X98.963 Y168.782 E17.6117
G1 X97.311 Y168.443 E17.72949
G1 X96.929 Y168.358 E17.75683
G1 X95.327 Y167.972 E17.87192
G1 X94.965 Y167.878 E17.89804
G1 X93.3 Y167.419 E18.01868
G1 X92.925 Y167.309 E18.04597
G1 X91.399 Y166.832 E18.15764
G1 X91.034 Y166.711 E18.1845
G1 X89.424 Y166.148 E18.30363
G1 X89.07 Y166.018 E18.32997
G1 X87.522 Y165.419 E18.44591
G1 X87.158 Y165.271 E18.47335
G1 X85.581 Y164.598 E18.59311
G1 X85.225 Y164.439 E18.62034
G1 X83.734 Y163.742 E18.7353
G1 X83.395 Y163.577 E18.76163
G1 X81.907 Y162.821 E18.87821
G1 X81.568 Y162.641 E18.90502
G1 X80.092 Y161.828 E19.02272
G1 X79.753 Y161.634 E19.05
G1 X78.32 Y160.78 E19.16651
G1 X77.994 Y160.578 E19.1933
G1 X76.586 Y159.674 E19.31017
G1 X76.261 Y159.458 E19.33742
G1 X74.905 Y158.521 E19.45255
G1 X74.599 Y158.301 E19.47887
G1 X73.215 Y157.276 E19.59916
G1 X72.908 Y157.041 E19.62617
G1 X71.617 Y156.016 E19.7413
G1 X71.323 Y155.775 E19.76786
G1 X70.062 Y154.704 E19.88341
G1 X69.768 Y154.445 E19.91078
G1 X68.503 Y153.294 E20.03023
G1 X68.226 Y153.034 E20.05677
G1 X67.043 Y151.884 E20.17201
G1 X66.771 Y151.611 E20.19892
G1 X65.631 Y150.426 E20.31377
G1 X65.373 Y150.148 E20.34026
G1 X64.233 Y148.882 E20.45926
G1 X63.969 Y148.579 E20.48733
G1 X62.89 Y147.293 E20.60458
G1 X62.656 Y147.004 E20.63055
G1 X61.631 Y145.699 E20.74645
G1 X61.394 Y145.387 E20.77382
G1 X60.385 Y144.008 E20.89317
G1 X60.167 Y143.699 E20.91958
G1 X59.243 Y142.345 E21.03407
G1 X59.031 Y142.023 E21.061
G1 X58.141 Y140.62 E21.17705
G1 X57.941 Y140.293 E21.20382
G1 X57.093 Y138.852 E21.32061
G1 X56.907 Y138.524 E21.34694
G1 X56.123 Y137.086 E21.46134
G1 X55.938 Y136.732 E21.48924
G1 X55.159 Y135.177 E21.61072
G1 X54.995 Y134.835 E21.63721
G1 X54.316 Y133.36 E21.75062
G1 X54.165 Y133.018 E21.77673
G1 X53.504 Y131.45 E21.89559
G1 X53.357 Y131.085 E21.92307
G1 X52.766 Y129.537 E22.0388
G1 X52.632 Y129.167 E22.06629
G1 X52.091 Y127.59 E22.18274
G1 X51.976 Y127.236 E22.20874
G1 X51.476 Y125.609 E22.32762
G1 X51.368 Y125.234 E22.35488
G1 X50.942 Y123.659 E22.46884
G1 X50.848 Y123.285 E22.49577
G1 X50.461 Y121.637 E22.61401
G1 X50.382 Y121.275 E22.63989
G1 X50.056 Y119.654 E22.75538
G1 X49.984 Y119.26 E22.78336
G1 X49.708 Y117.588 E22.90172
G1 X49.652 Y117.216 E22.92799
G1 X49.431 Y115.537 E23.04628
G1 X49.386 Y115.142 E23.07405
G1 X49.227 Y113.497 E23.18948
G1 X49.197 Y113.125 E23.21554
G1 X49.091 Y111.467 E23.33159
G1 X49.073 Y111.078 E23.35879
G1 X49.023 Y109.412 E23.4752
G1 X49.018 Y109.04 E23.50119
G1 X49.022 Y107.353 E23.61902
G1 X49.03 Y106.957 E23.64668
G1 X49.092 Y105.274 E23.76431
G1 X49.112 Y104.893 E23.79096
G1 X49.228 Y103.238 E23.90684
G1 X49.262 Y102.851 E23.93398
G1 X49.434 Y101.199 E24.04999
G1 X49.479 Y100.827 E24.07616
G1 X49.706 Y99.172 E24.19284
G1 X49.768 Y98.773 E24.22104
G1 X50.061 Y97.081 E24.34098
G1 X50.131 Y96.713 E24.36714
G1 X50.459 Y95.128 E24.48019
G1 X50.542 Y94.755 E24.50688
G1 X50.947 Y93.08 E24.62725
G1 X51.047 Y92.697 E24.6549
G1 X51.479 Y91.146 E24.76735
G1 X51.586 Y90.785 E24.79365
G1 X52.112 Y89.111 E24.91621
G1 X52.232 Y88.751 E24.94271
G1 X52.766 Y87.229 E25.05537
G1 X52.902 Y86.859 E25.08291
G1 X53.521 Y85.271 E25.20195
G1 X53.666 Y84.917 E25.22867
G1 X54.3 Y83.438 E25.34106
G1 X54.455 Y83.092 E25.36754
G1 X55.185 Y81.533 E25.48778
G1 X55.356 Y81.184 E25.51493
G1 X56.132 Y79.663 E25.63419
G1 X56.315 Y79.319 E25.66141
G1 X57.09 Y77.919 E25.77317
G1 X57.279 Y77.591 E25.79961
G1 X58.171 Y76.098 E25.92109
G1 X58.373 Y75.772 E25.94788
G1 X59.256 Y74.4 E26.06184
G1 X59.473 Y74.075 E26.08913
G1 X60.434 Y72.688 E26.20699
G1 X60.658 Y72.375 E26.23387
G1 X61.661 Y71.026 E26.35129
G1 X61.897 Y70.721 E26.37822
G1 X62.933 Y69.421 E26.49433
G1 X63.174 Y69.128 E26.52083
G1 X64.265 Y67.848 E26.6383
G1 X64.525 Y67.554 E26.66571
G1 X65.649 Y66.323 E26.78214
G1 X65.904 Y66.052 E26.80813
G1 X67.044 Y64.882 E26.92223
G0 F6000 X67.474 Y65.3
G1 F1200 X67.738 Y65.038 E26.94821
G1 X68.994 Y63.834 E27.06973
G1 X69.261 Y63.587 E27.09514
G1 X70.479 Y62.495 E27.20939
G1 X70.755 Y62.255 E27.23494
G1 X72.043 Y61.176 E27.3523
G1 X72.323 Y60.95 E27.37743
G1 X73.632 Y59.925 E27.49356
G1 X73.926 Y59.702 E27.51933
G1 X75.288 Y58.708 E27.6371
G1 X75.586 Y58.499 E27.66252
G1 X76.973 Y57.556 E27.77967
G1 X77.281 Y57.354 E27.8054
G1 X78.692 Y56.463 E27.92195
G1 X79.004 Y56.273 E27.94747
G1 X80.406 Y55.452 E28.06095
G1 X80.712 Y55.279 E28.0855
G1 X82.222 Y54.459 E28.20552
G1 X82.549 Y54.289 E28.23126
G1 X84.013 Y53.557 E28.34558
G1 X84.342 Y53.399 E28.37107
G1 X85.898 Y52.685 E28.49065
G1 X86.233 Y52.538 E28.5162
G1 X87.711 Y51.919 E28.62812
G1 X88.005 Y51.801 E28.65025
G1 X88.836 Y51.481 E28.71245
G1 X89.721 Y51.183 E28.77767
G1 X90.628 Y50.962 E28.84288
G1 X91.551 Y50.82 E28.9081
G1 X92.482 Y50.756 E28.97328
G1 X93.415 Y50.773 E29.03846
G1 X94.469 Y50.889 E29.11252
G1 X95.643 Y51.076 E29.19556
G1 X98.304 Y51.481 E29.38356
G1 X100.791 Y51.788 E29.55858
G1 X103.289 Y52.025 E29.73384
G1 X105.808 Y52.192 E29.91017
G1 X108.309 Y52.287 E30.08498
G1 X110.868 Y52.312 E30.26373
G1 X113.368 Y52.265 E30.43838
G1 X115.883 Y52.147 E30.61423
G1 X118.388 Y51.958 E30.78969
G1 X120.92 Y51.695 E30.9675
G1 X123.401 Y51.366 E31.1423
G1 X125.909 Y50.962 E31.31973
G1 X126.307 Y50.892 E31.34796
G1 X127.233 Y50.77 E31.4132
G1 X128.165 Y50.728 E31.47836
G1 X129.098 Y50.766 E31.54358
G1 X130.024 Y50.883 E31.60877
G1 X130.937 Y51.079 E31.67399
G1 X132.076 Y51.443 E31.75751
G1 X132.792 Y51.716 E31.81104
G1 X133.093 Y51.836 E31.83367
G1 X134.652 Y52.484 E31.95159
G1 X134.982 Y52.628 E31.97674
G1 X136.503 Y53.32 E32.09345
G1 X136.835 Y53.477 E32.1191
G1 X138.328 Y54.218 E32.23552
G1 X138.653 Y54.387 E32.26111
G1 X140.093 Y55.163 E32.37536
G1 X140.401 Y55.335 E32.4
G1 X141.806 Y56.152 E32.51352
G1 X142.113 Y56.338 E32.53859
G1 X143.545 Y57.235 E32.65661
G1 X143.851 Y57.434 E32.68211
G1 X145.247 Y58.375 E32.7997
G1 X145.545 Y58.583 E32.82508
G1 X146.837 Y59.518 E32.93647
G1 X147.126 Y59.734 E32.96167
G1 X148.461 Y60.769 E33.07966
G1 X148.738 Y60.991 E33.10445
G1 X150.006 Y62.042 E33.21949
G1 X150.287 Y62.283 E33.24534
G1 X151.554 Y63.408 E33.36369
G1 X151.817 Y63.65 E33.38865
G1 X152.997 Y64.769 E33.50224
G1 X153.254 Y65.021 E33.52738
G1 X154.405 Y66.187 E33.64181
G1 X154.653 Y66.446 E33.66686
G1 X155.797 Y67.684 E33.78459
G1 X156.04 Y67.956 E33.81007
G1 X157.119 Y69.205 E33.92535
G1 X157.35 Y69.481 E33.95049
G1 X158.38 Y70.756 E34.06497
G1 X158.596 Y71.033 E34.08951
G1 X159.578 Y72.332 E34.20325
G1 X159.796 Y72.63 E34.22904
G1 X160.769 Y74.012 E34.34709
G1 X160.973 Y74.313 E34.37248
G1 X161.897 Y75.723 E34.49023
G1 X162.089 Y76.027 E34.51534
G1 X162.924 Y77.398 E34.62747
G1 X163.107 Y77.71 E34.65273
G1 X163.939 Y79.184 E34.77095
G1 X164.111 Y79.5 E34.79608
G1 X164.857 Y80.93 E34.90874
G1 X165.013 Y81.241 E34.93304
G1 X165.726 Y82.721 E35.04778
G1 X165.883 Y83.062 E35.074
G1 X166.558 Y84.596 E35.19106
G1 X166.695 Y84.922 E35.21576
G1 X167.311 Y86.455 E35.33115
G1 X167.423 Y86.745 E35.35287
G1 X167.709 Y87.52 E35.41057
G1 X167.994 Y88.409 E35.47577
G1 X168.203 Y89.319 E35.54099
G1 X168.332 Y90.244 E35.60622
G1 X168.381 Y91.066 E35.66374
G1 X168.394 Y91.686 E35.70705
G1 X168.396 Y91.911 E35.72277
G1 X168.398 Y98.488 E36.18215
G1 X168.436 Y101.102 E36.36474
G1 X168.543 Y103.602 E36.53952
G1 X168.724 Y106.156 E36.71835
G1 X168.97 Y108.629 E36.89194
G1 X169.29 Y111.12 E37.06735
G1 X169.683 Y113.624 E37.24439
G1 X170.191 Y116.345 E37.43772
G1 X170.323 Y117.269 E37.50292
G1 X170.375 Y118.201 E37.56811
G1 X170.347 Y119.135 E37.63338
G1 X170.185 Y120.377 E37.72086
G1 X170.022 Y121.236 E37.78193
G1 X169.916 Y121.732 E37.81736
G1 X169.534 Y123.334 E37.93239
G1 X169.44 Y123.699 E37.95872
G1 X168.985 Y125.352 E38.07847
G1 X168.884 Y125.696 E38.10351
G1 X168.407 Y127.23 E38.21571
G1 X168.294 Y127.575 E38.24107
G1 X167.722 Y129.219 E38.36265
G1 X167.593 Y129.57 E38.38877
G1 X167.008 Y131.082 E38.502
G1 X166.874 Y131.413 E38.52695
G1 X166.208 Y132.98 E38.64587
G1 X166.062 Y133.308 E38.67095
G1 X165.382 Y134.772 E38.78369
G1 X165.226 Y135.094 E38.80868
G1 X164.473 Y136.585 E38.92535
G1 X164.302 Y136.909 E38.95094
G1 X163.486 Y138.398 E39.06954
G1 X163.293 Y138.736 E39.09672
G1 X162.409 Y140.221 E39.21743
G1 X162.228 Y140.515 E39.24154
G1 X161.371 Y141.856 E39.3527
G1 X161.17 Y142.159 E39.3781
G1 X160.195 Y143.578 E39.49835
G1 X159.983 Y143.875 E39.52384
G1 X158.988 Y145.224 E39.64092
G1 X158.76 Y145.523 E39.66718
G1 X157.715 Y146.842 E39.78472
G1 X157.49 Y147.116 E39.80948
G1 X156.435 Y148.362 E39.92352
G1 X156.195 Y148.636 E39.94896
G1 X155.072 Y149.876 E40.06581
G1 X154.817 Y150.148 E40.09185
G1 X153.622 Y151.38 E40.21173
G1 X153.362 Y151.639 E40.23736
G1 X152.176 Y152.782 E40.35241
