;FLAVOR:Marlin
;TIME:15036
;Filament used: 23.8236m
;Layer height: 0.28
;MINX:16
;MINY:28.5
;MINZ:0.28
;MAXX:204
;MAXY:191.5
;MAXZ:4.76
;Generated with Cura_SteamEngine 4.3.0
M140 S70
M105
M190 S70
M104 S210
M105
M109 S210
M82 ;absolute extrusion mode
M201 X500.00 Y500.00 Z100.00 E5000.00 ;Setup machine max acceleration
M203 X500.00 Y500.00 Z10.00 E50.00 ;Setup machine max feedrate
M204 P500.00 R1000.00 T500.00 ;Setup Print/Retract/Travel acceleration
M205 X8.00 Y8.00 Z0.40 E5.00 ;Setup Jerk
M220 S100 ;Reset Feedrate
M221 S100 ;Reset Flowrate

G28 ;Home

G92 E0 ;Reset Extruder
G1 Z2.0 F3000 ;Move Z Axis up
G1 X10.1 Y20 Z0.28 F5000.0 ;Move to start position
G1 X10.1 Y200.0 Z0.28 F1500.0 E15 ;Draw the first line
G1 X10.4 Y200.0 Z0.28 F5000.0 ;Move to side a little
G1 X10.4 Y20 Z0.28 F1500.0 E30 ;Draw the second line
G92 E0 ;Reset Extruder
G1 Z2.0 F3000 ;Move Z Axis up

G92 E0
G92 E0
G1 F2700 E-5
;LAYER_COUNT:17
;LAYER:0
M107
G0 F6000 X23.812 Y32.418 Z0.28
;TYPE:SKIRT
G1 F2700 E0
G1 F1200 X24.434 Y31.964 E0.05379
G1 X24.795 Y31.719 E0.08426
G1 X25.458 Y31.302 E0.13897
G1 X25.746 Y31.134 E0.16225
G1 X26.37 Y30.795 E0.21185
G1 X27.093 Y30.431 E0.26839
G1 X28.102 Y29.983 E0.3455
G1 X28.836 Y29.698 E0.4005
G1 X29.589 Y29.435 E0.45621
G1 X29.966 Y29.318 E0.48378
G1 X30.66 Y29.126 E0.53407
G1 X31.191 Y28.997 E0.57224
G1 X31.907 Y28.847 E0.62333
G1 X32.179 Y28.799 E0.64263
G1 X32.664 Y28.724 E0.6769
G1 X33.048 Y28.673 E0.70396
G1 X33.752 Y28.602 E0.75338
G1 X34.616 Y28.541 E0.81388
G1 X34.978 Y28.521 E0.8392
G1 X35.183 Y28.513 E0.85353
G1 X35.523 Y28.505 E0.87729
G1 X35.948 Y28.501 E0.90697
G1 X36.056 Y28.5 E0.91452
G1 X183.793 Y28.5 E11.2334
G1 X183.949 Y28.501 E11.24429
G1 X184.833 Y28.513 E11.30604
G1 X185.352 Y28.532 E11.34232
G1 X185.794 Y28.558 E11.37324
G1 X186.57 Y28.63 E11.42768
G1 X187.325 Y28.726 E11.48083
G1 X188.362 Y28.906 E11.55435
G1 X189.039 Y29.056 E11.60278
G1 X189.452 Y29.156 E11.63246
G1 X189.686 Y29.217 E11.64935
G1 X190.25 Y29.38 E11.69036
G1 X190.462 Y29.447 E11.70589
G1 X190.97 Y29.62 E11.74337
G1 X191.353 Y29.761 E11.77188
G1 X192.031 Y30.035 E11.82295
G1 X192.723 Y30.341 E11.8758
G1 X193.73 Y30.847 E11.95452
G1 X194.452 Y31.255 E12.01244
G1 X195.138 Y31.675 E12.06862
G1 X195.454 Y31.884 E12.09508
G1 X196.053 Y32.309 E12.14638
G1 X196.358 Y32.54 E12.17311
G1 X196.925 Y32.998 E12.22401
G1 X197.513 Y33.505 E12.27824
G1 X198.077 Y34.025 E12.33182
G1 X198.362 Y34.306 E12.35978
G1 X198.896 Y34.869 E12.41398
G1 X199.16 Y35.167 E12.44179
G1 X199.612 Y35.71 E12.49113
G1 X200.074 Y36.301 E12.54353
G1 X200.515 Y36.904 E12.59571
G1 X200.766 Y37.272 E12.62682
G1 X201.207 Y37.972 E12.68461
G1 X201.375 Y38.261 E12.70795
G1 X201.705 Y38.87 E12.75633
G1 X202.069 Y39.593 E12.81287
G1 X202.517 Y40.602 E12.88998
G1 X202.802 Y41.336 E12.94498
G1 X203.054 Y42.054 E12.99813
G1 X203.167 Y42.414 E13.02448
G1 X203.37 Y43.142 E13.07727
G1 X203.502 Y43.685 E13.1163
G1 X203.651 Y44.398 E13.16718
G1 X203.7 Y44.675 E13.18682
G1 X203.773 Y45.14 E13.2197
G1 X203.824 Y45.518 E13.24634
G1 X203.899 Y46.252 E13.29787
G1 X203.96 Y47.122 E13.35879
G1 X203.979 Y47.475 E13.38348
G1 X203.987 Y47.679 E13.39774
G1 X203.995 Y48.022 E13.4217
G1 X203.999 Y48.448 E13.45146
G1 X204 Y48.556 E13.459
G1 X204 Y147.152 E20.34557
G1 X203.998 Y151.325 E20.63704
G1 X203.997 Y151.487 E20.64835
G1 X203.975 Y152.989 E20.75327
G1 X203.965 Y153.318 E20.77626
G1 X203.929 Y154.151 E20.8345
G1 X203.911 Y154.472 E20.85696
G1 X203.87 Y155.047 E20.89722
G1 X203.847 Y155.318 E20.91622
G1 X203.761 Y156.222 E20.97964
G1 X203.724 Y156.562 E21.00353
G1 X203.647 Y157.177 E21.04682
G1 X203.606 Y157.471 E21.06755
G1 X203.467 Y158.388 E21.13233
G1 X203.407 Y158.748 E21.15783
G1 X203.263 Y159.53 E21.21336
G1 X203.21 Y159.8 E21.23258
G1 X203.076 Y160.441 E21.27832
G1 X203.006 Y160.752 E21.30059
G1 X202.851 Y161.403 E21.34733
G1 X202.782 Y161.679 E21.3672
G1 X202.548 Y162.564 E21.43114
G1 X202.458 Y162.885 E21.45442
G1 X202.285 Y163.47 E21.49703
G1 X202.196 Y163.756 E21.51795
G1 X201.921 Y164.604 E21.58022
G1 X201.819 Y164.906 E21.60248
G1 X201.613 Y165.486 E21.64547
G1 X201.51 Y165.763 E21.66611
G1 X201.176 Y166.632 E21.73114
G1 X201.056 Y166.932 E21.75371
G1 X200.845 Y167.438 E21.792
G1 X200.734 Y167.697 E21.81168
G1 X200.362 Y168.531 E21.87547
G1 X200.211 Y168.855 E21.90043
G1 X199.94 Y169.415 E21.94389
G1 X199.815 Y169.665 E21.96341
G1 X199.381 Y170.509 E22.0297
G1 X199.218 Y170.814 E22.05385
G1 X198.946 Y171.306 E22.09312
G1 X198.818 Y171.533 E22.11132
G1 X198.364 Y172.312 E22.1743
G1 X198.175 Y172.624 E22.19977
G1 X197.835 Y173.167 E22.24452
G1 X197.691 Y173.391 E22.26312
G1 X197.189 Y174.153 E22.32686
G1 X196.999 Y174.433 E22.35049
G1 X196.7 Y174.859 E22.38684
G1 X196.532 Y175.092 E22.40691
G1 X195.946 Y175.884 E22.47572
G1 X195.715 Y176.185 E22.50222
G1 X195.204 Y176.83 E22.5597
G1 X195.039 Y177.033 E22.57797
G1 X194.629 Y177.527 E22.62281
G1 X194.422 Y177.77 E22.6451
G1 X194.012 Y178.237 E22.68851
G1 X193.823 Y178.448 E22.70829
G1 X193.18 Y179.145 E22.77453
G1 X192.94 Y179.397 E22.79884
G1 X192.544 Y179.801 E22.83835
G1 X192.341 Y180.002 E22.8583
G1 X191.656 Y180.667 E22.92498
G1 X191.418 Y180.892 E22.94786
G1 X190.997 Y181.278 E22.98775
G1 X190.786 Y181.467 E23.00754
G1 X190.064 Y182.097 E23.07447
G1 X189.797 Y182.323 E23.0989
G1 X189.374 Y182.67 E23.13711
G1 X189.153 Y182.847 E23.15689
G1 X188.394 Y183.439 E23.22412
G1 X188.121 Y183.645 E23.24801
G1 X187.675 Y183.972 E23.28664
G1 X187.443 Y184.138 E23.30656
G1 X186.651 Y184.689 E23.37395
G1 X186.377 Y184.873 E23.397
G1 X185.903 Y185.183 E23.43656
G1 X185.666 Y185.335 E23.45623
G1 X184.888 Y185.817 E23.52015
G1 X184.591 Y185.995 E23.54434
G1 X184.038 Y186.315 E23.58896
G1 X183.786 Y186.456 E23.60913
G1 X182.954 Y186.91 E23.67533
G1 X182.608 Y187.091 E23.70261
G1 X181.961 Y187.416 E23.75318
G1 X181.751 Y187.519 E23.76952
G1 X181.118 Y187.821 E23.8185
G1 X180.809 Y187.963 E23.84225
G1 X180.213 Y188.226 E23.88776
G1 X179.98 Y188.326 E23.90547
G1 X179.166 Y188.664 E23.96703
G1 X178.829 Y188.797 E23.99233
G1 X178.264 Y189.011 E24.03453
G1 X178.001 Y189.108 E24.05411
G1 X177.158 Y189.404 E24.11652
G1 X176.845 Y189.508 E24.13955
G1 X176.209 Y189.711 E24.18618
G1 X175.923 Y189.799 E24.20708
G1 X175.077 Y190.045 E24.26862
G1 X174.711 Y190.145 E24.29512
G1 X173.959 Y190.337 E24.34933
G1 X173.715 Y190.396 E24.36686
G1 X172.957 Y190.572 E24.42122
G1 X172.6 Y190.649 E24.44672
G1 X171.851 Y190.798 E24.50006
G1 X171.575 Y190.849 E24.51967
G1 X170.89 Y190.968 E24.56823
G1 X170.552 Y191.022 E24.59214
G1 X169.742 Y191.138 E24.64929
G1 X169.471 Y191.173 E24.66838
G1 X168.782 Y191.255 E24.71684
G1 X168.476 Y191.288 E24.73834
G1 X167.845 Y191.346 E24.78259
G1 X167.553 Y191.369 E24.80305
G1 X166.558 Y191.435 E24.8727
G1 X166.202 Y191.453 E24.8976
G1 X165.55 Y191.476 E24.94317
G1 X165.295 Y191.482 E24.96098
G1 X163.991 Y191.499 E25.05207
G1 X163.841 Y191.5 E25.06255
G1 X60.583 Y191.5 E32.27474
G1 X56.175 Y191.498 E32.58262
G1 X56.011 Y191.497 E32.59407
G1 X54.51 Y191.475 E32.69892
G1 X54.182 Y191.465 E32.72184
G1 X53.349 Y191.429 E32.78008
G1 X53.028 Y191.411 E32.80254
G1 X52.453 Y191.37 E32.8428
G1 X52.175 Y191.347 E32.86228
G1 X51.256 Y191.259 E32.92677
G1 X50.926 Y191.222 E32.94996
G1 X50.326 Y191.147 E32.99219
G1 X50.029 Y191.106 E33.01313
G1 X49.112 Y190.967 E33.07791
G1 X48.752 Y190.907 E33.10341
G1 X47.97 Y190.763 E33.15894
G1 X47.7 Y190.71 E33.17816
G1 X47.035 Y190.571 E33.22561
G1 X46.712 Y190.498 E33.24874
G1 X46.085 Y190.348 E33.29377
G1 X45.821 Y190.282 E33.31278
G1 X44.936 Y190.048 E33.37672
G1 X44.615 Y189.958 E33.4
G1 X44.03 Y189.785 E33.44261
G1 X43.744 Y189.696 E33.46353
G1 X42.896 Y189.421 E33.5258
G1 X42.594 Y189.319 E33.54806
G1 X42.014 Y189.113 E33.59105
G1 X41.737 Y189.01 E33.6117
G1 X40.868 Y188.676 E33.67672
G1 X40.568 Y188.556 E33.69929
G1 X40.062 Y188.345 E33.73758
G1 X39.803 Y188.234 E33.75726
G1 X38.969 Y187.862 E33.82105
G1 X38.645 Y187.711 E33.84601
G1 X38.085 Y187.44 E33.88947
G1 X37.831 Y187.313 E33.9093
G1 X36.984 Y186.877 E33.97584
G1 X36.688 Y186.719 E33.99928
G1 X36.199 Y186.449 E34.03829
G1 X35.967 Y186.318 E34.0569
G1 X35.188 Y185.864 E34.11988
G1 X34.876 Y185.675 E34.14535
G1 X34.333 Y185.335 E34.1901
G1 X34.109 Y185.191 E34.2087
G1 X33.347 Y184.689 E34.27244
G1 X33.021 Y184.466 E34.30002
G1 X32.426 Y184.044 E34.35097
G1 X32.223 Y183.897 E34.36848
G1 X31.586 Y183.424 E34.4239
G1 X31.289 Y183.196 E34.45005
G1 X30.657 Y182.694 E34.50642
G1 X30.469 Y182.541 E34.52335
G1 X29.965 Y182.123 E34.56909
G1 X29.712 Y181.907 E34.59232
G1 X29.256 Y181.506 E34.63474
G1 X29.052 Y181.323 E34.65388
G1 X28.355 Y180.68 E34.72011
G1 X28.103 Y180.44 E34.74442
G1 X27.699 Y180.044 E34.78393
G1 X27.498 Y179.841 E34.80388
G1 X26.833 Y179.156 E34.87057
G1 X26.608 Y178.918 E34.89344
G1 X26.222 Y178.497 E34.93334
G1 X26.033 Y178.286 E34.95312
G1 X25.403 Y177.564 E35.02005
G1 X25.177 Y177.297 E35.04448
G1 X24.83 Y176.874 E35.0827
G1 X24.652 Y176.651 E35.10263
G1 X24.054 Y175.884 E35.17056
G1 X23.847 Y175.611 E35.19449
G1 X23.526 Y175.173 E35.23241
G1 X23.364 Y174.946 E35.25189
G1 X22.807 Y174.146 E35.31998
G1 X22.613 Y173.858 E35.34423
G1 X22.309 Y173.392 E35.3831
G1 X22.165 Y173.166 E35.40181
G1 X21.683 Y172.388 E35.46574
G1 X21.505 Y172.091 E35.48992
G1 X21.185 Y171.538 E35.53455
G1 X21.044 Y171.286 E35.55472
G1 X20.59 Y170.454 E35.62092
G1 X20.409 Y170.108 E35.64819
G1 X20.084 Y169.461 E35.69876
G1 X19.981 Y169.251 E35.7151
G1 X19.679 Y168.618 E35.76409
G1 X19.537 Y168.309 E35.78784
G1 X19.274 Y167.713 E35.83334
G1 X19.174 Y167.48 E35.85105
G1 X18.836 Y166.666 E35.91261
G1 X18.703 Y166.329 E35.93792
G1 X18.489 Y165.764 E35.98012
G1 X18.392 Y165.501 E35.99969
G1 X18.096 Y164.658 E36.0621
G1 X17.992 Y164.345 E36.08514
G1 X17.789 Y163.709 E36.13177
G1 X17.701 Y163.422 E36.15273
G1 X17.449 Y162.555 E36.2158
G1 X17.347 Y162.181 E36.24287
G1 X17.161 Y161.45 E36.29556
G1 X17.104 Y161.215 E36.31245
G1 X16.928 Y160.457 E36.3668
G1 X16.851 Y160.1 E36.39231
G1 X16.702 Y159.351 E36.44565
G1 X16.651 Y159.075 E36.46525
G1 X16.532 Y158.39 E36.51381
G1 X16.478 Y158.052 E36.53772
G1 X16.362 Y157.242 E36.59487
G1 X16.327 Y156.971 E36.61396
G1 X16.245 Y156.282 E36.66242
G1 X16.212 Y155.976 E36.68392
G1 X16.154 Y155.345 E36.72818
G1 X16.131 Y155.053 E36.74864
G1 X16.065 Y154.058 E36.81829
G1 X16.047 Y153.703 E36.84311
G1 X16.024 Y153.052 E36.88861
G1 X16.018 Y152.796 E36.9065
G1 X16.001 Y151.49 E36.99772
G1 X16 Y151.34 E37.0082
G1 X16 Y48.707 E44.17673
G1 X16.001 Y48.541 E44.18833
G1 X16.014 Y47.641 E44.2512
G1 X16.033 Y47.135 E44.28656
G1 X16.058 Y46.708 E44.31644
G1 X16.13 Y45.928 E44.37115
G1 X16.226 Y45.174 E44.42424
G1 X16.406 Y44.138 E44.49769
G1 X16.556 Y43.461 E44.54612
G1 X16.664 Y43.015 E44.57817
G1 X16.726 Y42.78 E44.59515
G1 X16.856 Y42.328 E44.628
G1 X16.921 Y42.117 E44.64342
G1 X17.128 Y41.505 E44.68854
G1 X17.27 Y41.122 E44.71707
G1 X17.535 Y40.469 E44.7663
G1 X17.841 Y39.777 E44.81914
G1 X18.347 Y38.77 E44.89786
G1 X18.755 Y38.048 E44.95578
G1 X19.175 Y37.362 E45.01196
G1 X19.384 Y37.046 E45.03843
G1 X19.809 Y36.447 E45.08973
G1 X20.04 Y36.142 E45.11645
G1 X20.491 Y35.583 E45.16662
G1 X20.998 Y34.994 E45.2209
G1 X21.541 Y34.406 E45.2768
G1 X21.832 Y34.112 E45.30569
G1 X22.398 Y33.577 E45.36009
G1 X22.686 Y33.323 E45.38691
G1 X23.213 Y32.886 E45.43473
G1 X23.812 Y32.418 E45.48782
G0 F6000 X24.181 Y32.891
G1 F1200 X24.771 Y32.461 E45.53882
G1 X25.132 Y32.216 E45.56929
G1 X25.761 Y31.82 E45.62121
G1 X26.049 Y31.652 E45.64449
G1 X26.639 Y31.331 E45.69141
G1 X27.362 Y30.967 E45.74794
G1 X28.319 Y30.542 E45.82108
G1 X29.053 Y30.257 E45.87608
G1 X29.767 Y30.008 E45.92889
G1 X30.144 Y29.891 E45.95647
G1 X30.802 Y29.709 E46.00415
G1 X31.333 Y29.58 E46.04232
G1 X32.012 Y29.438 E46.09077
G1 X32.284 Y29.39 E46.11006
G1 X32.743 Y29.319 E46.1425
G1 X33.127 Y29.268 E46.16956
G1 X33.794 Y29.2 E46.21639
G1 X34.658 Y29.139 E46.27688
G1 X35.001 Y29.12 E46.30088
G1 X35.206 Y29.112 E46.31521
G1 X35.528 Y29.104 E46.3377
G1 X35.953 Y29.1 E46.36739
G1 X183.793 Y29.1 E56.69347
G1 X183.941 Y29.101 E56.7038
G1 X184.825 Y29.113 E56.76555
G1 X185.317 Y29.131 E56.79994
G1 X185.759 Y29.157 E56.83087
G1 X186.494 Y29.225 E56.88242
G1 X187.249 Y29.321 E56.93558
G1 X188.232 Y29.492 E57.00527
G1 X188.909 Y29.642 E57.0537
G1 X189.301 Y29.736 E57.08186
G1 X189.535 Y29.797 E57.09875
G1 X190.07 Y29.952 E57.13765
G1 X190.282 Y30.019 E57.15318
G1 X190.763 Y30.183 E57.18868
G1 X191.146 Y30.324 E57.21718
G1 X191.788 Y30.584 E57.26556
G1 X192.48 Y30.89 E57.31841
G1 X193.435 Y31.369 E57.39304
G1 X194.157 Y31.777 E57.45096
G1 X194.807 Y32.176 E57.50423
G1 X195.123 Y32.385 E57.53069
G1 X195.691 Y32.787 E57.5793
G1 X195.996 Y33.018 E57.60602
G1 X196.533 Y33.452 E57.65425
G1 X197.121 Y33.959 E57.70847
G1 X197.656 Y34.452 E57.75929
G1 X197.941 Y34.733 E57.78724
G1 X198.447 Y35.267 E57.83863
G1 X198.711 Y35.565 E57.86643
G1 X199.139 Y36.08 E57.9132
G1 X199.601 Y36.671 E57.9656
G1 X200.019 Y37.242 E58.01503
G1 X200.27 Y37.61 E58.04614
G1 X200.688 Y38.274 E58.10094
G1 X200.856 Y38.563 E58.12429
G1 X201.169 Y39.139 E58.17008
G1 X201.533 Y39.862 E58.22661
G1 X201.958 Y40.819 E58.29975
G1 X202.243 Y41.553 E58.35475
G1 X202.482 Y42.234 E58.40516
G1 X202.595 Y42.594 E58.43151
G1 X202.787 Y43.283 E58.48147
G1 X202.919 Y43.826 E58.5205
G1 X203.06 Y44.502 E58.56873
G1 X203.109 Y44.779 E58.58838
G1 X203.178 Y45.221 E58.61963
G1 X203.229 Y45.599 E58.64627
G1 X203.3 Y46.294 E58.69506
G1 X203.361 Y47.164 E58.75598
G1 X203.38 Y47.499 E58.77942
G1 X203.388 Y47.703 E58.79368
G1 X203.396 Y48.028 E58.81638
G1 X203.4 Y48.454 E58.84614
G1 X203.4 Y147.151 E65.73976
G1 X203.398 Y151.324 E66.03123
G1 X203.397 Y151.479 E66.04205
G1 X203.375 Y152.981 E66.14697
G1 X203.366 Y153.292 E66.1687
G1 X203.33 Y154.125 E66.22694
G1 X203.312 Y154.429 E66.24821
G1 X203.271 Y155.004 E66.28847
G1 X203.25 Y155.261 E66.30648
G1 X203.164 Y156.165 E66.36991
G1 X203.129 Y156.487 E66.39253
G1 X203.052 Y157.102 E66.43582
G1 X203.013 Y157.382 E66.45557
G1 X202.874 Y158.299 E66.52035
G1 X202.817 Y158.639 E66.54443
G1 X202.673 Y159.421 E66.59997
G1 X202.622 Y159.677 E66.6182
G1 X202.488 Y160.318 E66.66394
G1 X202.423 Y160.613 E66.68504
G1 X202.268 Y161.264 E66.73178
G1 X202.202 Y161.525 E66.75058
G1 X201.968 Y162.41 E66.81452
G1 X201.883 Y162.715 E66.83664
G1 X201.71 Y163.3 E66.87925
G1 X201.625 Y163.571 E66.89908
G1 X201.35 Y164.419 E66.96135
G1 X201.253 Y164.705 E66.98244
G1 X201.047 Y165.285 E67.02543
G1 X200.95 Y165.548 E67.04501
G1 X200.616 Y166.417 E67.11004
G1 X200.502 Y166.701 E67.13141
G1 X200.291 Y167.207 E67.1697
G1 X200.186 Y167.452 E67.18832
G1 X199.814 Y168.286 E67.25211
G1 X199.671 Y168.594 E67.27582
G1 X199.4 Y169.154 E67.31928
G1 X199.282 Y169.391 E67.33777
G1 X198.848 Y170.235 E67.40406
G1 X198.693 Y170.524 E67.42696
G1 X198.421 Y171.016 E67.46623
G1 X198.299 Y171.23 E67.48343
G1 X197.845 Y172.009 E67.54641
G1 X197.666 Y172.306 E67.57063
G1 X197.326 Y172.849 E67.61538
G1 X197.19 Y173.061 E67.63297
G1 X196.688 Y173.823 E67.69671
G1 X196.508 Y174.088 E67.71908
G1 X196.209 Y174.514 E67.75543
G1 X196.049 Y174.735 E67.77449
G1 X195.463 Y175.527 E67.8433
G1 X195.245 Y175.813 E67.86842
G1 X194.734 Y176.458 E67.9259
G1 X194.578 Y176.65 E67.94318
G1 X194.168 Y177.144 E67.98802
G1 X193.971 Y177.374 E68.00917
G1 X193.561 Y177.841 E68.05257
G1 X193.382 Y178.041 E68.07132
G1 X192.739 Y178.738 E68.13755
G1 X192.511 Y178.977 E68.16063
G1 X192.115 Y179.381 E68.20014
G1 X191.923 Y179.572 E68.21905
G1 X191.238 Y180.237 E68.28574
G1 X191.012 Y180.45 E68.30743
G1 X190.591 Y180.836 E68.34732
G1 X190.391 Y181.015 E68.36607
G1 X189.669 Y181.645 E68.433
G1 X189.416 Y181.859 E68.45614
G1 X188.993 Y182.206 E68.49436
G1 X188.784 Y182.374 E68.51309
G1 X188.025 Y182.966 E68.58032
G1 X187.766 Y183.161 E68.60296
G1 X187.32 Y183.488 E68.64159
G1 X187.1 Y183.646 E68.66051
G1 X186.308 Y184.197 E68.7279
G1 X186.049 Y184.371 E68.74969
G1 X185.575 Y184.681 E68.78925
G1 X185.35 Y184.825 E68.80791
G1 X184.572 Y185.307 E68.87183
G1 X184.29 Y185.475 E68.89476
G1 X183.737 Y185.795 E68.93938
G1 X183.499 Y185.929 E68.95846
